; generated by PrusaSlicer 2.2.0+win64 on 2024-02-28 at 07:29:14 UTC

; 

; external perimeters extrusion width = 0.45mm
; perimeters extrusion width = 0.45mm
; infill extrusion width = 0.45mm
; solid infill extrusion width = 0.45mm
; top infill extrusion width = 0.40mm
; support material extrusion width = 0.35mm
; first layer extrusion width = 0.42mm

M73 P0 R108
M73 Q0 S110
M201 X1000 Y1000 Z200 E5000 ; sets maximum accelerations, mm/sec^2
M203 X200 Y200 Z12 E120 ; sets maximum feedrates, mm/sec
M204 P1250 R1250 T1250 ; sets acceleration (P, T) and retract acceleration (R), mm/sec^2
M205 X8.00 Y8.00 Z0.40 E4.50 ; sets the jerk limits, mm/sec
M205 S0 T0 ; sets the minimum extruding and travel feed rate, mm/sec
M107
M862.3 P "MK3S" ; printer model check
M862.1 P0.4 ; nozzle diameter check
M115 U3.12.1 ; tell printer latest fw version
G90 ; use absolute coordinates
M83 ; extruder relative mode
M104 S215 ; set extruder temp
M140 S60 ; set bed temp
M190 S60 ; wait for bed temp
M109 S215 ; wait for extruder temp
G28 W ; home all without mesh bed level
G80 ; mesh bed leveling
G1 Y-3.0 F1000.0 ; go outside print area
G92 E0.0
G1 X60.0 E9.0 F1000.0 ; intro line
M73 Q0 S110
M73 P0 R108
G1 X100.0 E12.5 F1000.0 ; intro line
G92 E0.0
M221 S95

; Don't change E values below. Excessive value can damage the printer.
M907 E430 ; set extruder motor current
G21 ; set units to millimeters
G90 ; use absolute coordinates
M83 ; use relative distances for extrusion
M900 K0.05 ; Filament gcode LA 1.5
M900 K30 ; Filament gcode LA 1.0
;BEFORE_LAYER_CHANGE
G92 E0.0
;0.2


G1 E-0.80000 F2100.00000
G1 Z0.400 F10800.000
;AFTER_LAYER_CHANGE
;0.2
G1 X33.475 Y95.080
G1 Z0.200
G1 E0.80000 F2100.00000
M204 S1000
G1 F1200.000
G1 X34.325 Y94.854 E0.02755
G1 X214.334 Y94.623 E5.64407
G1 X214.907 Y94.694 E0.01811
G1 X215.450 Y94.903 E0.01823
G1 X215.922 Y95.235 E0.01811
G1 X216.301 Y95.671 E0.01811
G1 X221.041 Y103.871 E0.29698
G1 X221.251 Y104.409 E0.01811
G1 X221.326 Y104.982 E0.01811
G1 X221.257 Y105.570 E0.01858
G1 X221.044 Y106.124 E0.01858
G1 X216.317 Y114.305 E0.29627
G1 X215.968 Y114.722 E0.01704
G1 X215.534 Y115.049 E0.01704
G1 X215.041 Y115.268 E0.01692
G1 X214.507 Y115.370 E0.01704
G1 X46.564 Y115.153 E5.26574
G1 X34.414 Y114.981 E0.38099
G1 X33.491 Y114.758 E0.02977
G1 X32.727 Y114.188 E0.02989
G1 X29.121 Y109.762 E0.17900
G1 X28.817 Y109.188 E0.02036
G1 X28.681 Y108.553 E0.02036
G1 X28.675 Y101.572 E0.21891
G1 X28.853 Y100.719 E0.02731
G1 X29.162 Y100.182 E0.01941
G1 X32.764 Y95.602 E0.18271
G1 X33.427 Y95.115 E0.02578
; printing object extender_arm_REV2-1.STL id:0 copy 0
G1 F8640.000
G1 X34.325 Y94.854 E-0.21584
G1 X36.681 Y94.851 E-0.54416
G1 E-0.04000 F2100.00000
G1 Z0.600 F10800.000
G1 X34.501 Y97.224
G1 Z0.200
G1 E0.80000 F2100.00000
G1 F1200.000
G1 X34.501 Y101.211 E0.12501
G1 X35.255 Y101.211 E0.02365
G1 X35.255 Y97.394 E0.11969
G1 X36.009 Y97.394 E0.02365
G1 X36.009 Y101.211 E0.11969
G1 X36.763 Y101.211 E0.02365
G1 X36.763 Y97.394 E0.11969
G1 X37.518 Y97.394 E0.02365
G1 X37.518 Y101.211 E0.11969
G1 X38.272 Y101.211 E0.02365
G1 X38.272 Y97.394 E0.11969
G1 X39.026 Y97.394 E0.02365
G1 X39.026 Y101.211 E0.11969
G1 X39.780 Y101.211 E0.02365
G1 X39.780 Y97.394 E0.11969
G1 X40.534 Y97.394 E0.02365
G1 X40.534 Y101.211 E0.11969
G1 X41.288 Y101.211 E0.02365
G1 X41.288 Y97.394 E0.11969
G1 X42.043 Y97.394 E0.02365
G1 X42.043 Y101.211 E0.11969
G1 X42.797 Y101.211 E0.02365
G1 X42.797 Y97.394 E0.11969
G1 X43.551 Y97.394 E0.02365
G1 X43.551 Y101.211 E0.11969
G1 X44.305 Y101.211 E0.02365
G1 X44.305 Y97.394 E0.11969
G1 X45.059 Y97.394 E0.02365
G1 X45.059 Y101.211 E0.11969
G1 X45.813 Y101.211 E0.02365
G1 X45.813 Y97.394 E0.11969
G1 X46.567 Y97.394 E0.02365
G1 X46.567 Y101.381 E0.12501
G1 F8640.000
G1 X46.567 Y98.090 E-0.76000
G1 E-0.04000 F2100.00000
G1 Z0.600 F10800.000
G1 X46.567 Y112.776
G1 Z0.200
G1 E0.80000 F2100.00000
G1 F1200.000
G1 X46.567 Y108.789 E0.12501
G1 X45.813 Y108.789 E0.02365
G1 X45.813 Y112.606 E0.11969
G1 X45.059 Y112.606 E0.02365
G1 X45.059 Y108.789 E0.11969
G1 X44.305 Y108.789 E0.02365
G1 X44.305 Y112.606 E0.11969
G1 X43.551 Y112.606 E0.02365
G1 X43.551 Y108.789 E0.11969
G1 X42.797 Y108.789 E0.02365
G1 X42.797 Y112.606 E0.11969
G1 X42.043 Y112.606 E0.02365
G1 X42.043 Y108.789 E0.11969
G1 X41.288 Y108.789 E0.02365
G1 X41.288 Y112.606 E0.11969
G1 X40.534 Y112.606 E0.02365
G1 X40.534 Y108.789 E0.11969
G1 X39.780 Y108.789 E0.02365
G1 X39.780 Y112.606 E0.11969
G1 X39.026 Y112.606 E0.02365
G1 X39.026 Y108.789 E0.11969
G1 X38.272 Y108.789 E0.02365
G1 X38.272 Y112.606 E0.11969
G1 X37.518 Y112.606 E0.02365
G1 X37.518 Y108.789 E0.11969
G1 X36.763 Y108.789 E0.02365
G1 X36.763 Y112.606 E0.11969
G1 X36.009 Y112.606 E0.02365
G1 X36.009 Y108.789 E0.11969
G1 X35.255 Y108.789 E0.02365
G1 X35.255 Y112.606 E0.11969
G1 X34.501 Y112.606 E0.02365
G1 X34.501 Y108.619 E0.12501
G1 F8640.000
G1 X34.501 Y111.910 E-0.76000
G1 E-0.04000 F2100.00000
G1 Z0.600 F10800.000
G1 X60.142 Y101.381
G1 Z0.200
G1 E0.80000 F2100.00000
G1 F1200.000
G1 X60.142 Y97.394 E0.12501
G1 X60.896 Y97.394 E0.02365
G1 X60.896 Y101.211 E0.11969
G1 X61.651 Y101.211 E0.02365
G1 X61.651 Y97.394 E0.11969
G1 X62.405 Y97.394 E0.02365
G1 X62.405 Y101.211 E0.11969
G1 X63.159 Y101.211 E0.02365
G1 X63.159 Y97.394 E0.11969
G1 X63.913 Y97.394 E0.02365
G1 X63.913 Y101.211 E0.11969
G1 X64.667 Y101.211 E0.02365
G1 X64.667 Y97.394 E0.11969
G1 X65.421 Y97.394 E0.02365
G1 X65.421 Y101.211 E0.11969
G1 X66.176 Y101.211 E0.02365
G1 X66.176 Y97.394 E0.11969
G1 X66.930 Y97.394 E0.02365
G1 X66.930 Y101.211 E0.11969
G1 X67.684 Y101.211 E0.02365
G1 X67.684 Y97.394 E0.11969
G1 X68.438 Y97.394 E0.02365
G1 X68.438 Y101.211 E0.11969
G1 X69.192 Y101.211 E0.02365
G1 X69.192 Y97.394 E0.11969
G1 X69.946 Y97.394 E0.02365
G1 X69.946 Y101.381 E0.12501
G1 F8640.000
G1 X69.946 Y98.090 E-0.76000
G1 E-0.04000 F2100.00000
G1 Z0.600 F10800.000
G1 X69.946 Y112.776
G1 Z0.200
G1 E0.80000 F2100.00000
G1 F1200.000
G1 X69.946 Y108.789 E0.12501
G1 X69.192 Y108.789 E0.02365
G1 X69.192 Y112.606 E0.11969
G1 X68.438 Y112.606 E0.02365
G1 X68.438 Y108.789 E0.11969
G1 X67.684 Y108.789 E0.02365
G1 X67.684 Y112.606 E0.11969
G1 X66.930 Y112.606 E0.02365
G1 X66.930 Y108.789 E0.11969
G1 X66.176 Y108.789 E0.02365
G1 X66.176 Y112.606 E0.11969
G1 X65.421 Y112.606 E0.02365
G1 X65.421 Y108.789 E0.11969
G1 X64.667 Y108.789 E0.02365
G1 X64.667 Y112.606 E0.11969
G1 X63.913 Y112.606 E0.02365
G1 X63.913 Y108.789 E0.11969
G1 X63.159 Y108.789 E0.02365
G1 X63.159 Y112.606 E0.11969
G1 X62.405 Y112.606 E0.02365
G1 X62.405 Y108.789 E0.11969
G1 X61.651 Y108.789 E0.02365
G1 X61.651 Y112.606 E0.11969
G1 X60.896 Y112.606 E0.02365
G1 X60.896 Y108.789 E0.11969
G1 X60.142 Y108.789 E0.02365
G1 X60.142 Y112.776 E0.12501
G1 F8640.000
G1 X60.142 Y109.484 E-0.76000
G1 E-0.04000 F2100.00000
G1 Z0.600 F10800.000
G1 X82.767 Y108.619
G1 Z0.200
G1 E0.80000 F2100.00000
G1 F1200.000
G1 X82.767 Y112.606 E0.12501
G1 X83.521 Y112.606 E0.02365
G1 X83.521 Y108.789 E0.11969
G1 X84.275 Y108.789 E0.02365
G1 X84.275 Y112.606 E0.11969
G1 X85.030 Y112.606 E0.02365
G1 X85.030 Y108.789 E0.11969
G1 X85.784 Y108.789 E0.02365
G1 X85.784 Y112.606 E0.11969
G1 X86.538 Y112.606 E0.02365
G1 X86.538 Y108.789 E0.11969
G1 X87.292 Y108.789 E0.02365
G1 X87.292 Y112.606 E0.11969
G1 X88.046 Y112.606 E0.02365
G1 X88.046 Y108.789 E0.11969
G1 X88.800 Y108.789 E0.02365
G1 X88.800 Y112.606 E0.11969
G1 X89.555 Y112.606 E0.02365
G1 X89.555 Y108.789 E0.11969
G1 X90.309 Y108.789 E0.02365
G1 X90.309 Y112.606 E0.11969
G1 X91.063 Y112.606 E0.02365
G1 X91.063 Y108.789 E0.11969
G1 X91.817 Y108.789 E0.02365
G1 X91.817 Y112.606 E0.11969
G1 X92.571 Y112.606 E0.02365
G1 X92.571 Y108.789 E0.11969
G1 X93.325 Y108.789 E0.02365
G1 X93.325 Y112.606 E0.11969
G1 X94.079 Y112.606 E0.02365
G1 X94.079 Y108.789 E0.11969
G1 X94.834 Y108.789 E0.02365
G1 X94.834 Y112.776 E0.12501
G1 F8640.000
G1 X94.834 Y109.484 E-0.76000
G1 E-0.04000 F2100.00000
G1 Z0.600 F10800.000
G1 X94.834 Y101.381
G1 Z0.200
G1 E0.80000 F2100.00000
G1 F1200.000
G1 X94.834 Y97.394 E0.12501
G1 X94.079 Y97.394 E0.02365
G1 X94.079 Y101.211 E0.11969
G1 X93.325 Y101.211 E0.02365
G1 X93.325 Y97.394 E0.11969
G1 X92.571 Y97.394 E0.02365
G1 X92.571 Y101.211 E0.11969
G1 X91.817 Y101.211 E0.02365
G1 X91.817 Y97.394 E0.11969
G1 X91.063 Y97.394 E0.02365
G1 X91.063 Y101.211 E0.11969
G1 X90.309 Y101.211 E0.02365
G1 X90.309 Y97.394 E0.11969
G1 X89.555 Y97.394 E0.02365
G1 X89.555 Y101.211 E0.11969
G1 X88.800 Y101.211 E0.02365
G1 X88.800 Y97.394 E0.11969
G1 X88.046 Y97.394 E0.02365
G1 X88.046 Y101.211 E0.11969
G1 X87.292 Y101.211 E0.02365
G1 X87.292 Y97.394 E0.11969
G1 X86.538 Y97.394 E0.02365
G1 X86.538 Y101.211 E0.11969
G1 X85.784 Y101.211 E0.02365
G1 X85.784 Y97.394 E0.11969
G1 X85.030 Y97.394 E0.02365
G1 X85.030 Y101.211 E0.11969
G1 X84.275 Y101.211 E0.02365
G1 X84.275 Y97.394 E0.11969
G1 X83.521 Y97.394 E0.02365
G1 X83.521 Y101.211 E0.11969
G1 X82.767 Y101.211 E0.02365
G1 X82.767 Y97.224 E0.12501
G1 F8640.000
G1 X82.767 Y100.516 E-0.76000
G1 E-0.04000 F2100.00000
G1 Z0.600 F10800.000
G1 X108.409 Y97.224
G1 Z0.200
G1 E0.80000 F2100.00000
G1 F1200.000
G1 X108.409 Y101.211 E0.12501
G1 X109.163 Y101.211 E0.02365
G1 X109.163 Y97.394 E0.11969
G1 X109.917 Y97.394 E0.02365
G1 X109.917 Y101.211 E0.11969
G1 X110.671 Y101.211 E0.02365
G1 X110.671 Y97.394 E0.11969
G1 X111.425 Y97.394 E0.02365
G1 X111.425 Y101.211 E0.11969
G1 X112.179 Y101.211 E0.02365
G1 X112.179 Y97.394 E0.11969
G1 X112.933 Y97.394 E0.02365
G1 X112.933 Y101.211 E0.11969
G1 X113.688 Y101.211 E0.02365
G1 X113.688 Y97.394 E0.11969
G1 X114.442 Y97.394 E0.02365
G1 X114.442 Y101.211 E0.11969
G1 X115.196 Y101.211 E0.02365
G1 X115.196 Y97.394 E0.11969
G1 X115.950 Y97.394 E0.02365
G1 X115.950 Y101.211 E0.11969
G1 X116.704 Y101.211 E0.02365
G1 X116.704 Y97.394 E0.11969
G1 X117.458 Y97.394 E0.02365
G1 X117.458 Y101.211 E0.11969
G1 X118.213 Y101.211 E0.02365
G1 X118.213 Y97.394 E0.11969
G1 X118.967 Y97.394 E0.02365
G1 X118.967 Y101.211 E0.11969
G1 X119.721 Y101.211 E0.02365
G1 X119.721 Y97.394 E0.11969
G1 X120.475 Y97.394 E0.02365
G1 X120.475 Y101.381 E0.12501
G1 F8640.000
G1 X120.475 Y98.090 E-0.76000
G1 E-0.04000 F2100.00000
G1 Z0.600 F10800.000
G1 X120.475 Y112.776
G1 Z0.200
G1 E0.80000 F2100.00000
G1 F1200.000
G1 X120.475 Y108.789 E0.12501
G1 X119.721 Y108.789 E0.02365
G1 X119.721 Y112.606 E0.11969
G1 X118.967 Y112.606 E0.02365
G1 X118.967 Y108.789 E0.11969
G1 X118.213 Y108.789 E0.02365
G1 X118.213 Y112.606 E0.11969
G1 X117.458 Y112.606 E0.02365
G1 X117.458 Y108.789 E0.11969
G1 X116.704 Y108.789 E0.02365
G1 X116.704 Y112.606 E0.11969
G1 X115.950 Y112.606 E0.02365
G1 X115.950 Y108.789 E0.11969
G1 X115.196 Y108.789 E0.02365
G1 X115.196 Y112.606 E0.11969
G1 X114.442 Y112.606 E0.02365
G1 X114.442 Y108.789 E0.11969
G1 X113.688 Y108.789 E0.02365
G1 X113.688 Y112.606 E0.11969
G1 X112.933 Y112.606 E0.02365
G1 X112.933 Y108.789 E0.11969
G1 X112.179 Y108.789 E0.02365
G1 X112.179 Y112.606 E0.11969
G1 X111.425 Y112.606 E0.02365
G1 X111.425 Y108.789 E0.11969
G1 X110.671 Y108.789 E0.02365
G1 X110.671 Y112.606 E0.11969
G1 X109.917 Y112.606 E0.02365
G1 X109.917 Y108.789 E0.11969
G1 X109.163 Y108.789 E0.02365
G1 X109.163 Y112.606 E0.11969
G1 X108.409 Y112.606 E0.02365
G1 X108.409 Y108.619 E0.12501
M73 Q0 S109
G1 F8640.000
G1 X108.409 Y111.910 E-0.76000
G1 E-0.04000 F2100.00000
G1 Z0.600 F10800.000
G1 X134.050 Y97.224
G1 Z0.200
G1 E0.80000 F2100.00000
M73 P0 R107
G1 F1200.000
G1 X134.050 Y101.211 E0.12501
G1 X134.804 Y101.211 E0.02365
G1 X134.804 Y97.394 E0.11969
G1 X135.558 Y97.394 E0.02365
G1 X135.558 Y101.211 E0.11969
G1 X136.312 Y101.211 E0.02365
G1 X136.312 Y97.394 E0.11969
G1 X137.067 Y97.394 E0.02365
G1 X137.067 Y101.211 E0.11969
G1 X137.821 Y101.211 E0.02365
G1 X137.821 Y97.394 E0.11969
G1 X138.575 Y97.394 E0.02365
G1 X138.575 Y101.211 E0.11969
G1 X139.329 Y101.211 E0.02365
G1 X139.329 Y97.394 E0.11969
G1 X140.083 Y97.394 E0.02365
G1 X140.083 Y101.211 E0.11969
G1 X140.837 Y101.211 E0.02365
G1 X140.837 Y97.394 E0.11969
G1 X141.591 Y97.394 E0.02365
G1 X141.591 Y101.211 E0.11969
G1 X142.346 Y101.211 E0.02365
G1 X142.346 Y97.394 E0.11969
G1 X143.100 Y97.394 E0.02365
G1 X143.100 Y101.211 E0.11969
G1 X143.854 Y101.211 E0.02365
G1 X143.854 Y97.394 E0.11969
G1 X144.608 Y97.394 E0.02365
G1 X144.608 Y101.211 E0.11969
G1 X145.362 Y101.211 E0.02365
G1 X145.362 Y97.394 E0.11969
G1 X146.116 Y97.394 E0.02365
G1 X146.116 Y101.381 E0.12501
G1 F8640.000
G1 X146.116 Y98.090 E-0.76000
G1 E-0.04000 F2100.00000
G1 Z0.600 F10800.000
G1 X146.116 Y112.776
G1 Z0.200
G1 E0.80000 F2100.00000
G1 F1200.000
G1 X146.116 Y108.789 E0.12501
G1 X145.362 Y108.789 E0.02365
G1 X145.362 Y112.606 E0.11969
G1 X144.608 Y112.606 E0.02365
G1 X144.608 Y108.789 E0.11969
G1 X143.854 Y108.789 E0.02365
G1 X143.854 Y112.606 E0.11969
G1 X143.100 Y112.606 E0.02365
G1 X143.100 Y108.789 E0.11969
G1 X142.346 Y108.789 E0.02365
G1 X142.346 Y112.606 E0.11969
G1 X141.591 Y112.606 E0.02365
G1 X141.591 Y108.789 E0.11969
G1 X140.837 Y108.789 E0.02365
G1 X140.837 Y112.606 E0.11969
G1 X140.083 Y112.606 E0.02365
G1 X140.083 Y108.789 E0.11969
G1 X139.329 Y108.789 E0.02365
G1 X139.329 Y112.606 E0.11969
G1 X138.575 Y112.606 E0.02365
G1 X138.575 Y108.789 E0.11969
G1 X137.821 Y108.789 E0.02365
G1 X137.821 Y112.606 E0.11969
G1 X137.067 Y112.606 E0.02365
G1 X137.067 Y108.789 E0.11969
G1 X136.312 Y108.789 E0.02365
G1 X136.312 Y112.606 E0.11969
G1 X135.558 Y112.606 E0.02365
G1 X135.558 Y108.789 E0.11969
G1 X134.804 Y108.789 E0.02365
G1 X134.804 Y112.606 E0.11969
G1 X134.050 Y112.606 E0.02365
G1 X134.050 Y108.619 E0.12501
G1 F8640.000
G1 X134.050 Y111.910 E-0.76000
G1 E-0.04000 F2100.00000
G1 Z0.600 F10800.000
G1 X159.691 Y108.619
G1 Z0.200
G1 E0.80000 F2100.00000
G1 F1200.000
G1 X159.691 Y112.606 E0.12501
G1 X160.445 Y112.606 E0.02365
G1 X160.445 Y108.789 E0.11969
G1 X161.200 Y108.789 E0.02365
G1 X161.200 Y112.606 E0.11969
G1 X161.954 Y112.606 E0.02365
G1 X161.954 Y108.789 E0.11969
G1 X162.708 Y108.789 E0.02365
G1 X162.708 Y112.606 E0.11969
G1 X163.462 Y112.606 E0.02365
G1 X163.462 Y108.789 E0.11969
G1 X164.216 Y108.789 E0.02365
G1 X164.216 Y112.606 E0.11969
G1 X164.970 Y112.606 E0.02365
G1 X164.970 Y108.789 E0.11969
G1 X165.725 Y108.789 E0.02365
G1 X165.725 Y112.606 E0.11969
G1 X166.479 Y112.606 E0.02365
G1 X166.479 Y108.789 E0.11969
G1 X167.233 Y108.789 E0.02365
G1 X167.233 Y112.606 E0.11969
G1 X167.987 Y112.606 E0.02365
G1 X167.987 Y108.789 E0.11969
G1 X168.741 Y108.789 E0.02365
G1 X168.741 Y112.606 E0.11969
G1 X169.495 Y112.606 E0.02365
G1 X169.495 Y108.789 E0.11969
G1 X170.250 Y108.789 E0.02365
G1 X170.250 Y112.606 E0.11969
G1 X171.004 Y112.606 E0.02365
G1 X171.004 Y108.789 E0.11969
G1 X171.758 Y108.789 E0.02365
G1 X171.758 Y112.776 E0.12501
G1 F8640.000
G1 X171.758 Y109.484 E-0.76000
G1 E-0.04000 F2100.00000
G1 Z0.600 F10800.000
G1 X171.758 Y101.381
G1 Z0.200
G1 E0.80000 F2100.00000
G1 F1200.000
G1 X171.758 Y97.394 E0.12501
G1 X171.004 Y97.394 E0.02365
G1 X171.004 Y101.211 E0.11969
G1 X170.250 Y101.211 E0.02365
G1 X170.250 Y97.394 E0.11969
G1 X169.495 Y97.394 E0.02365
G1 X169.495 Y101.211 E0.11969
G1 X168.741 Y101.211 E0.02365
G1 X168.741 Y97.394 E0.11969
G1 X167.987 Y97.394 E0.02365
G1 X167.987 Y101.211 E0.11969
G1 X167.233 Y101.211 E0.02365
G1 X167.233 Y97.394 E0.11969
G1 X166.479 Y97.394 E0.02365
G1 X166.479 Y101.211 E0.11969
G1 X165.725 Y101.211 E0.02365
G1 X165.725 Y97.394 E0.11969
G1 X164.970 Y97.394 E0.02365
G1 X164.970 Y101.211 E0.11969
G1 X164.216 Y101.211 E0.02365
G1 X164.216 Y97.394 E0.11969
G1 X163.462 Y97.394 E0.02365
G1 X163.462 Y101.211 E0.11969
G1 X162.708 Y101.211 E0.02365
G1 X162.708 Y97.394 E0.11969
G1 X161.954 Y97.394 E0.02365
G1 X161.954 Y101.211 E0.11969
G1 X161.200 Y101.211 E0.02365
G1 X161.200 Y97.394 E0.11969
G1 X160.445 Y97.394 E0.02365
G1 X160.445 Y101.211 E0.11969
G1 X159.691 Y101.211 E0.02365
G1 X159.691 Y97.224 E0.12501
G1 F8640.000
G1 X159.691 Y100.516 E-0.76000
G1 E-0.04000 F2100.00000
G1 Z0.600 F10800.000
G1 X207.957 Y106.533
G1 Z0.200
G1 E0.80000 F2100.00000
G1 F1200.000
G1 X207.957 Y103.744 E0.08747
G1 X208.217 Y103.441 E0.01250
