; generated by PrusaSlicer 2.2.0+win64 on 2024-02-28 at 07:30:04 UTC

; 

; external perimeters extrusion width = 0.45mm
; perimeters extrusion width = 0.45mm
; infill extrusion width = 0.45mm
; solid infill extrusion width = 0.45mm
; top infill extrusion width = 0.40mm
; support material extrusion width = 0.35mm
; first layer extrusion width = 0.42mm

M73 P0 R22
M73 Q0 S22
M201 X1000 Y1000 Z200 E5000 ; sets maximum accelerations, mm/sec^2
M203 X200 Y200 Z12 E120 ; sets maximum feedrates, mm/sec
M204 P1250 R1250 T1250 ; sets acceleration (P, T) and retract acceleration (R), mm/sec^2
M205 X8.00 Y8.00 Z0.40 E4.50 ; sets the jerk limits, mm/sec
M205 S0 T0 ; sets the minimum extruding and travel feed rate, mm/sec
M107
M862.3 P "MK3S" ; printer model check
M862.1 P0.4 ; nozzle diameter check
M115 U3.12.1 ; tell printer latest fw version
G90 ; use absolute coordinates
M83 ; extruder relative mode
M104 S215 ; set extruder temp
M140 S60 ; set bed temp
M190 S60 ; wait for bed temp
M109 S215 ; wait for extruder temp
G28 W ; home all without mesh bed level
G80 ; mesh bed leveling
G1 Y-3.0 F1000.0 ; go outside print area
G92 E0.0
G1 X60.0 E9.0 F1000.0 ; intro line
M73 Q0 S22
M73 P0 R22
G1 X100.0 E12.5 F1000.0 ; intro line
G92 E0.0
M221 S95

; Don't change E values below. Excessive value can damage the printer.
M907 E430 ; set extruder motor current
G21 ; set units to millimeters
G90 ; use absolute coordinates
M83 ; use relative distances for extrusion
M900 K0.05 ; Filament gcode LA 1.5
M900 K30 ; Filament gcode LA 1.0
;BEFORE_LAYER_CHANGE
G92 E0.0
;0.2


G1 E-0.80000 F2100.00000
G1 Z0.400 F10800.000
;AFTER_LAYER_CHANGE
;0.2
G1 X106.983 Y97.640
G1 Z0.200
G1 E0.80000 F2100.00000
M204 S1000
G1 F1200.000
G1 X107.706 Y97.271 E0.02543
G1 X137.884 Y87.997 E0.98989
G1 X138.578 Y87.894 E0.02201
G1 X146.608 Y88.115 E0.25187
G1 X147.256 Y88.355 E0.02166
G1 X147.805 Y88.768 E0.02154
G1 X148.215 Y89.324 E0.02166
G1 X148.447 Y89.974 E0.02166
G1 X148.481 Y108.380 E0.57709
G1 X146.163 Y120.125 E0.37539
G1 X145.836 Y120.872 E0.02555
G1 X145.279 Y121.462 E0.02543
G1 X144.851 Y121.717 E0.01562
G1 X144.384 Y121.877 E0.01550
G1 X142.460 Y122.103 E0.06074
G1 X134.031 Y122.106 E0.26428
G1 X133.480 Y122.037 E0.01740
G1 X107.572 Y112.683 E0.86367
G1 X106.982 Y112.360 E0.02107
G1 X106.505 Y111.882 E0.02119
G1 X106.168 Y111.253 E0.02237
G1 X106.033 Y110.548 E0.02249
G1 X106.033 Y99.462 E0.34760
G1 X106.109 Y98.939 E0.01657
G1 X106.301 Y98.443 E0.01668
G1 X106.598 Y98.002 E0.01668
G1 X106.939 Y97.681 E0.01469
; printing object array_holder_REV2-1.STL id:0 copy 0
G1 F8640.000
G1 X107.706 Y97.271 E-0.20064
G1 X110.021 Y96.560 E-0.55936
G1 E-0.04000 F2100.00000
G1 Z0.600 F10800.000
G1 X108.409 Y99.542
G1 Z0.200
G1 E0.80000 F2100.00000
G1 F1200.000
G1 X108.409 Y110.458 E0.34225
G1 X118.213 Y110.458 F10800.000
G1 F1200.000
G1 X118.213 Y107.097 E0.10537
G1 X117.458 Y107.097 E0.02365
G1 X117.458 Y110.288 E0.10005
G1 X116.704 Y110.288 E0.02365
G1 X116.704 Y107.097 E0.10005
G1 X115.950 Y107.097 E0.02365
G1 X115.950 Y110.288 E0.10005
G1 X115.196 Y110.288 E0.02365
G1 X115.196 Y107.097 E0.10005
G1 X114.442 Y107.097 E0.02365
G1 X114.442 Y110.288 E0.10005
G1 X113.688 Y110.288 E0.02365
G1 X113.688 Y107.097 E0.10005
G1 X112.933 Y107.097 E0.02365
G1 X112.933 Y110.288 E0.10005
G1 X112.179 Y110.288 E0.02365
G1 X112.179 Y107.097 E0.10005
G1 X111.425 Y107.097 E0.02365
G1 X111.425 Y110.288 E0.10005
G1 X110.671 Y110.288 E0.02365
G1 X110.671 Y107.097 E0.10005
G1 X109.917 Y107.097 E0.02365
G1 X109.917 Y110.288 E0.10005
G1 X109.163 Y110.288 E0.02365
G1 X109.163 Y99.712 E0.33161
G1 X109.917 Y99.712 E0.02365
G1 X109.917 Y102.770 E0.09589
G1 X110.671 Y102.770 E0.02365
G1 X110.671 Y99.712 E0.09589
G1 X111.425 Y99.712 E0.02365
G1 X111.425 Y102.770 E0.09589
G1 X112.179 Y102.770 E0.02365
G1 X112.179 Y99.712 E0.09589
G1 X112.933 Y99.712 E0.02365
G1 X112.933 Y102.770 E0.09589
G1 X113.688 Y102.770 E0.02365
G1 X113.688 Y99.712 E0.09589
G1 X114.442 Y99.712 E0.02365
G1 X114.442 Y102.770 E0.09589
G1 X115.196 Y102.770 E0.02365
G1 X115.196 Y99.712 E0.09589
G1 X115.950 Y99.712 E0.02365
G1 X115.950 Y102.770 E0.09589
G1 X116.704 Y102.770 E0.02365
G1 X116.704 Y99.712 E0.09589
G1 X117.458 Y99.712 E0.02365
G1 X117.458 Y102.770 E0.09589
G1 X118.213 Y102.770 E0.02365
G1 X118.213 Y99.542 E0.10121
G1 F8640.000
G1 X118.213 Y102.770 E-0.74535
G1 X118.149 Y102.770 E-0.01465
G1 E-0.04000 F2100.00000
G1 Z0.600 F10800.000
G1 X134.050 Y111.527
G1 Z0.200
G1 E0.80000 F2100.00000
G1 F1200.000
G1 X134.050 Y113.195 E0.05230
G1 F8640.000
G1 X134.050 Y111.527 E-0.38516
G1 E-0.41484 F2100.00000
G1 Z0.600 F10800.000
G1 X134.050 Y119.729
G1 Z0.200
G1 E0.80000 F2100.00000
G1 F1200.000
G1 X134.050 Y114.755 E0.15594
G1 X134.804 Y114.902 E0.02409
G1 X134.804 Y119.559 E0.14602
G1 X135.558 Y119.559 E0.02365
G1 X135.558 Y115.049 E0.14143
G1 X136.312 Y115.195 E0.02409
G1 X136.312 Y119.559 E0.13683
G1 X137.067 Y119.559 E0.02365
G1 X137.067 Y115.342 E0.13224
G1 X137.821 Y115.488 E0.02409
G1 X137.821 Y119.559 E0.12764
G1 X138.575 Y119.559 E0.02365
G1 X138.575 Y115.635 E0.12304
G1 X139.073 Y115.732 E0.01592
G1 X139.329 Y115.559 E0.00967
G1 X139.329 Y119.559 E0.12542
G1 X140.083 Y119.559 E0.02365
G1 X140.083 Y111.806 E0.24311
G1 X140.837 Y107.926 E0.12393
G1 X140.837 Y119.559 E0.36476
G1 X141.591 Y119.559 E0.02365
G1 X141.591 Y104.046 E0.48641
G1 X142.346 Y100.166 E0.12393
G1 X142.346 Y119.729 E0.61338
G1 F8640.000
G1 X142.346 Y116.438 E-0.76000
G1 E-0.04000 F2100.00000
G1 Z0.600 F10800.000
G1 X146.116 Y108.140
G1 Z0.200
G1 E0.80000 F2100.00000
G1 F1200.000
G1 X146.116 Y90.441 E0.55495
G1 X145.362 Y90.441 E0.02365
G1 X145.362 Y107.970 E0.54963
G1 X144.608 Y107.970 E0.02365
G1 X144.608 Y90.441 E0.54963
G1 X143.854 Y90.441 E0.02365
G1 X143.854 Y119.559 E0.91300
G1 X143.100 Y119.559 E0.02365
G1 X143.100 Y90.441 E0.91300
G1 X142.346 Y90.441 E0.02365
G1 X142.346 Y95.151 E0.14769
G1 X141.591 Y95.005 E0.02409
G1 X141.591 Y90.441 E0.14310
G1 X140.837 Y90.441 E0.02365
G1 X140.837 Y94.858 E0.13850
G1 X140.083 Y94.711 E0.02409
G1 X140.083 Y90.441 E0.13390
G1 X139.329 Y90.441 E0.02365
G1 X139.329 Y94.565 E0.12931
G1 X138.575 Y94.418 E0.02409
G1 X138.575 Y90.271 E0.13003
G1 F8640.000
G1 X138.575 Y93.562 E-0.76000
G1 E-0.04000 F2100.00000
G1 Z0.600 F10800.000
G1 X138.514 Y95.630
G1 Z0.200
G1 E0.80000 F2100.00000
G1 F1200.000
G1 X141.877 Y96.283 E0.10741
G1 X138.362 Y114.370 E0.57773
G1 X134.999 Y113.717 E0.10741
G1 X136.519 Y105.897 E0.24979
G1 X110.729 Y105.897 E0.80861
G1 X110.729 Y103.971 E0.06038
G1 X120.198 Y103.971 E0.29688
G1 X120.198 Y100.971 E0.09406
G1 X137.476 Y100.971 E0.54175
G1 X138.503 Y95.688 E0.16873
G1 F8640.000
G1 X141.744 Y96.260 E-0.76000
G1 E-0.04000 F2100.00000
G1 Z0.600 F10800.000
G1 X136.061 Y106.274
G1 Z0.200
G1 E0.80000 F2100.00000
G1 F1200.000
G1 X110.352 Y106.274 E0.80609
G1 X110.352 Y103.594 E0.08403
G1 X119.821 Y103.594 E0.29688
G1 X119.821 Y100.594 E0.09406
G1 X137.165 Y100.594 E0.54383
G1 X138.216 Y95.187 E0.17268
G1 X142.319 Y95.985 E0.13106
G1 X138.660 Y114.813 E0.60138
G1 X134.557 Y114.015 E0.13106
G1 X136.050 Y106.333 E0.24538
G1 X136.022 Y105.876 F10800.000
G1 X136.384 Y105.784
G1 F1200.000
G1 X131.854 Y101.254 E0.20284
G1 X131.315 Y101.254 E0.01705
G1 X135.676 Y105.614 E0.19524
G1 X135.137 Y105.614 E0.01705
G1 X130.777 Y101.254 E0.19524
G1 X130.238 Y101.254 E0.01705
G1 X134.599 Y105.614 E0.19524
G1 X134.060 Y105.614 E0.01705
G1 X129.700 Y101.254 E0.19524
G1 X129.161 Y101.254 E0.01705
G1 X133.521 Y105.614 E0.19524
G1 X132.983 Y105.614 E0.01705
G1 X128.623 Y101.254 E0.19524
G1 X128.084 Y101.254 E0.01705
G1 X132.444 Y105.614 E0.19524
G1 X131.906 Y105.614 E0.01705
G1 X127.546 Y101.254 E0.19524
G1 X127.007 Y101.254 E0.01705
G1 X131.367 Y105.614 E0.19524
G1 X130.829 Y105.614 E0.01705
G1 X126.469 Y101.254 E0.19524
G1 X125.930 Y101.254 E0.01705
G1 X130.290 Y105.614 E0.19524
G1 X129.752 Y105.614 E0.01705
G1 X125.392 Y101.254 E0.19524
G1 X124.853 Y101.254 E0.01705
G1 X129.213 Y105.614 E0.19524
G1 X128.675 Y105.614 E0.01705
G1 X124.315 Y101.254 E0.19524
G1 X123.776 Y101.254 E0.01705
G1 X128.136 Y105.614 E0.19524
G1 X127.598 Y105.614 E0.01705
G1 X123.238 Y101.254 E0.19524
G1 X122.699 Y101.254 E0.01705
G1 X127.059 Y105.614 E0.19524
G1 X126.521 Y105.614 E0.01705
G1 X122.161 Y101.254 E0.19524
G1 X121.622 Y101.254 E0.01705
G1 X125.982 Y105.614 E0.19524
G1 X125.444 Y105.614 E0.01705
G1 X121.084 Y101.254 E0.19524
G1 X120.545 Y101.254 E0.01705
G1 X124.905 Y105.614 E0.19524
G1 X124.367 Y105.614 E0.01705
G1 X120.481 Y101.728 E0.17401
G1 X120.481 Y102.266 E0.01705
G1 X123.828 Y105.614 E0.14990
G1 X123.290 Y105.614 E0.01705
G1 X120.481 Y102.805 E0.12579
G1 X120.481 Y103.343 E0.01705
G1 X122.751 Y105.614 E0.10168
G1 X122.213 Y105.614 E0.01705
G1 X120.481 Y103.882 E0.07756
G1 X120.481 Y104.254 E0.01178
G1 X120.314 Y104.254 E0.00527
G1 X121.674 Y105.614 E0.06091
G1 X121.136 Y105.614 E0.01705
G1 X119.776 Y104.254 E0.06091
G1 X119.237 Y104.254 E0.01705
G1 X120.597 Y105.614 E0.06091
G1 X120.059 Y105.614 E0.01705
G1 X118.699 Y104.254 E0.06091
G1 X118.160 Y104.254 E0.01705
G1 X119.520 Y105.614 E0.06091
G1 X118.982 Y105.614 E0.01705
G1 X117.622 Y104.254 E0.06091
G1 X117.083 Y104.254 E0.01705
G1 X118.443 Y105.614 E0.06091
G1 X117.905 Y105.614 E0.01705
G1 X116.545 Y104.254 E0.06091
G1 X116.006 Y104.254 E0.01705
G1 X117.366 Y105.614 E0.06091
G1 X116.828 Y105.614 E0.01705
G1 X115.468 Y104.254 E0.06091
G1 X114.929 Y104.254 E0.01705
G1 X116.289 Y105.614 E0.06091
G1 X115.751 Y105.614 E0.01705
G1 X114.391 Y104.254 E0.06091
G1 X113.852 Y104.254 E0.01705
G1 X115.212 Y105.614 E0.06091
G1 X114.674 Y105.614 E0.01705
G1 X113.314 Y104.254 E0.06091
G1 X112.775 Y104.254 E0.01705
G1 X114.135 Y105.614 E0.06091
G1 X113.597 Y105.614 E0.01705
G1 X112.237 Y104.254 E0.06091
G1 X111.698 Y104.254 E0.01705
G1 X113.058 Y105.614 E0.06091
G1 X112.520 Y105.614 E0.01705
G1 X111.160 Y104.254 E0.06091
G1 X111.012 Y104.254 E0.00467
G1 X111.012 Y104.645 E0.01238
G1 X111.981 Y105.614 E0.04340
G1 X111.443 Y105.614 E0.01705
G1 X110.842 Y105.013 E0.02688
G1 F8640.000
G1 X111.443 Y105.614 E-0.19605
G1 X111.981 Y105.614 E-0.12434
G1 X111.012 Y104.645 E-0.31648
G1 X111.012 Y104.254 E-0.09030
G1 X111.154 Y104.254 E-0.03283
G1 E-0.04000 F2100.00000
G1 Z0.600 F10800.000
G1 X135.209 Y113.225
G1 Z0.200
G1 E0.80000 F2100.00000
G1 F1200.000
G1 X135.513 Y113.529 E0.01358
G1 X136.181 Y113.659 E0.02156
G1 X135.442 Y112.919 E0.03311
G1 X135.529 Y112.468 E0.01454
G1 X136.850 Y113.789 E0.05912
G1 X137.518 Y113.918 E0.02156
G1 X135.617 Y112.017 E0.08512
G1 X135.705 Y111.567 E0.01454
G1 X138.144 Y114.006 E0.10924
G1 X138.232 Y113.555 E0.01454
G1 X135.792 Y111.116 E0.10924
G1 X135.880 Y110.665 E0.01454
G1 X138.320 Y113.104 E0.10924
G1 X138.407 Y112.654 E0.01454
G1 X135.968 Y110.214 E0.10924
G1 X136.055 Y109.763 E0.01454
G1 X138.495 Y112.203 E0.10924
G1 X138.582 Y111.752 E0.01454
G1 X136.143 Y109.312 E0.10924
G1 X136.231 Y108.861 E0.01454
G1 X138.670 Y111.301 E0.10924
G1 X138.758 Y110.850 E0.01454
G1 X136.318 Y108.411 E0.10924
G1 X136.406 Y107.960 E0.01454
G1 X138.845 Y110.399 E0.10924
G1 X138.933 Y109.948 E0.01454
G1 X136.493 Y107.509 E0.10924
G1 X136.581 Y107.058 E0.01454
G1 X139.021 Y109.497 E0.10924
G1 X139.108 Y109.047 E0.01454
G1 X136.669 Y106.607 E0.10924
G1 X136.756 Y106.156 E0.01454
G1 X139.196 Y108.596 E0.10924
G1 X139.284 Y108.145 E0.01454
G1 X132.392 Y101.254 E0.30857
G1 X132.931 Y101.254 E0.01705
G1 X139.371 Y107.694 E0.28838
G1 X139.459 Y107.243 E0.01454
G1 X133.469 Y101.254 E0.26819
G1 X134.008 Y101.254 E0.01705
G1 X139.546 Y106.792 E0.24801
G1 X139.634 Y106.341 E0.01454
G1 X134.546 Y101.254 E0.22782
G1 X135.085 Y101.254 E0.01705
G1 X139.722 Y105.891 E0.20763
M73 Q4 S21
G1 X139.809 Y105.440 E0.01454
G1 X135.623 Y101.254 E0.18744
G1 X136.162 Y101.254 E0.01705
G1 X139.897 Y104.989 E0.16725
M73 P4 R21
G1 X139.985 Y104.538 E0.01454
G1 X136.700 Y101.254 E0.14706
G1 X137.239 Y101.254 E0.01705
G1 X140.072 Y104.087 E0.12688
G1 X140.160 Y103.636 E0.01454
G1 X137.720 Y101.197 E0.10924
G1 X137.808 Y100.746 E0.01454
G1 X140.248 Y103.185 E0.10924
G1 X140.335 Y102.735 E0.01454
G1 X137.896 Y100.295 E0.10924
G1 X137.983 Y99.844 E0.01454
G1 X140.423 Y102.284 E0.10924
G1 X140.511 Y101.833 E0.01454
G1 X138.071 Y99.393 E0.10924
G1 X138.159 Y98.942 E0.01454
G1 X140.598 Y101.382 E0.10924
G1 X140.686 Y100.931 E0.01454
G1 X138.246 Y98.491 E0.10924
G1 X138.334 Y98.041 E0.01454
G1 X140.773 Y100.480 E0.10924
G1 X140.861 Y100.029 E0.01454
G1 X138.422 Y97.590 E0.10924
G1 X138.509 Y97.139 E0.01454
G1 X140.949 Y99.578 E0.10924
G1 X141.036 Y99.128 E0.01454
G1 X138.597 Y96.688 E0.10924
G1 X138.684 Y96.237 E0.01454
G1 X141.124 Y98.677 E0.10924
G1 X141.212 Y98.226 E0.01454
G1 X138.997 Y96.011 E0.09916
G1 X139.666 Y96.141 E0.02156
G1 X141.299 Y97.775 E0.07315
G1 X141.387 Y97.324 E0.01454
G1 X140.334 Y96.271 E0.04714
G1 X141.003 Y96.401 E0.02156
G1 X141.619 Y97.018 E0.02762
; stop printing object array_holder_REV2-1.STL id:0 copy 0
M106 S255
;BEFORE_LAYER_CHANGE
G92 E0.0
;0.35


G1 F8640.000
G1 X141.003 Y96.401 E-0.20141
G1 X140.334 Y96.271 E-0.15723
G1 X141.387 Y97.324 E-0.34380
G1 X141.339 Y97.569 E-0.05756
G1 E-0.04000 F2100.00000
G1 Z0.600 F10800.000
;AFTER_LAYER_CHANGE
;0.35
M104 S210 ; set temperature
G1 X148.447 Y89.974
G1 Z0.350
G1 E0.80000 F2100.00000
G1 F3000.000
G1 X148.481 Y108.380 E0.44513
G1 X146.163 Y120.125 E0.28956
G1 X145.836 Y120.872 E0.01971
G1 X145.279 Y121.462 E0.01962
G1 X144.851 Y121.717 E0.01205
G1 X144.384 Y121.877 E0.01195
G1 X142.460 Y122.103 E0.04685
G1 X134.031 Y122.106 E0.20385
G1 X133.480 Y122.037 E0.01342
G1 X107.572 Y112.683 E0.66619
G1 X106.982 Y112.360 E0.01625
G1 X106.505 Y111.882 E0.01634
G1 X106.168 Y111.253 E0.01725
G1 X106.033 Y110.548 E0.01734
G1 X106.033 Y99.462 E0.26811
G1 X106.109 Y98.939 E0.01278
G1 X106.301 Y98.443 E0.01287
G1 X106.598 Y98.002 E0.01287
G1 X106.983 Y97.640 E0.01278
G1 X107.706 Y97.271 E0.01962
G1 X137.884 Y87.997 E0.76354
G1 X138.578 Y87.894 E0.01698
G1 X146.608 Y88.115 E0.19427
G1 X147.256 Y88.355 E0.01671
G1 X147.805 Y88.768 E0.01662
G1 X148.215 Y89.324 E0.01671
G1 X148.427 Y89.918 E0.01526
; printing object array_holder_REV2-1.STL id:0 copy 0
G1 F8640.000
G1 X148.437 Y93.209 E-0.76000
G1 E-0.04000 F2100.00000
G1 Z0.750 F10800.000
G1 X142.046 Y96.169
G1 Z0.350
G1 E0.80000 F2100.00000
M204 S800
G1 F2700.000
G1 X138.476 Y114.540 E0.48762
G1 X134.829 Y113.831 E0.09678
G1 X136.344 Y106.041 E0.20677
G1 X110.484 Y106.041 E0.67379
G1 X110.484 Y103.827 E0.05770
G1 X120.155 Y103.827 E0.25198
G1 X120.155 Y100.827 E0.07817
G1 X137.357 Y100.827 E0.44823
G1 X138.400 Y95.460 E0.14244
G1 X141.988 Y96.158 E0.09522
M204 S1000
G1 F8640.000
G1 X141.370 Y99.391 E-0.76000
G1 E-0.04000 F2100.00000
G1 Z0.750 F10800.000
G1 X135.837 Y106.459
G1 Z0.350
G1 E0.80000 F2100.00000
M204 S800
G1 F1500.000
G1 X110.066 Y106.459 E0.67147
G1 X110.066 Y103.409 E0.07947
G1 X119.737 Y103.409 E0.25198
G1 X119.737 Y100.409 E0.07817
G1 X137.013 Y100.409 E0.45014
G1 X138.070 Y94.971 E0.14435
G1 X142.536 Y95.839 E0.11855
G1 X138.806 Y115.029 E0.50939
G1 X134.340 Y114.161 E0.11855
G1 X135.825 Y106.518 E0.20289
M204 S1000
G1 X135.792 Y106.061 F10800.000
G1 F8640.000
G1 X132.534 Y106.510 E-0.76000
G1 E-0.04000 F2100.00000
G1 Z0.750 F10800.000
G1 X132.236 Y105.916
G1 Z0.350
G1 E0.80000 F2100.00000
G1 F4347
G1 X137.012 Y101.140 E0.17819
G1 X136.414 Y101.140 E0.01578
G1 X131.826 Y105.728 E0.17117
G1 X131.228 Y105.728 E0.01578
G1 X135.816 Y101.140 E0.17117
G1 X135.217 Y101.140 E0.01578
G1 X130.630 Y105.728 E0.17117
G1 X130.031 Y105.728 E0.01578
G1 X134.619 Y101.140 E0.17117
G1 X134.021 Y101.140 E0.01578
G1 X129.433 Y105.728 E0.17117
G1 X128.835 Y105.728 E0.01578
G1 X133.422 Y101.140 E0.17117
G1 X132.824 Y101.140 E0.01578
G1 X128.236 Y105.728 E0.17117
G1 X127.638 Y105.728 E0.01578
G1 X132.226 Y101.140 E0.17117
G1 X131.627 Y101.140 E0.01578
G1 X127.040 Y105.728 E0.17117
G1 X126.442 Y105.728 E0.01578
G1 X131.029 Y101.140 E0.17117
G1 X130.431 Y101.140 E0.01578
G1 X125.843 Y105.728 E0.17117
G1 X125.245 Y105.728 E0.01578
G1 X129.833 Y101.140 E0.17117
G1 X129.234 Y101.140 E0.01578
