;FLAVOR:Marlin
;TIME:7891
;Filament used: 12.5798m
;Layer height: 0.2
;MINX:52
;MINY:52
;MINZ:0.2
;MAXX:168
;MAXY:168
;MAXZ:19.4
;TARGET_MACHINE.NAME:Creality Ender-3 V3 SE
;Generated with Cura_SteamEngine 5.7.0
M82 ;absolute extrusion mode
M220 S100 ;Reset Feedrate
M221 S100 ;Reset Flowrate

G28 ;Home

M420 S1; Use saved mesh leveling data

G92 E0 ;Reset Extruder
G1 Z2.0 F3000 ;Move Z Axis up
G1 X-3 Y20 Z0.28 F5000.0 ;Move to start position
M190 S60 ; Set bed temperature and wait
M109 S200 ; Set hotend temperature and wait
G1 X-3 Y100.0 Z0.28 F1500.0 E15 ;Draw the first line
G1 X-2 Y100.0 Z0.28 F5000.0 ;Move to side a little
G1 X-2 Y20 Z0.28 F1500.0 E30 ;Draw the second line
G92 E0 ;Reset Extruder
G1 E-1.0000 F1800 ;Retract a bit
G1 Z2.0 F3000 ;Move Z Axis up
G1 E0.0000 F1800 

G92 E0
G92 E0
G1 F2400 E-0.8
;LAYER_COUNT:97
;LAYER:0
M107
G0 F9000 X56.714 Y56.093 Z0.2
;TYPE:SKIRT
G1 F2400 E0
G1 F1800 X57.219 Y55.648 E0.02239
G1 X57.678 Y55.27 E0.04216
G1 X58.639 Y54.563 E0.08185
G1 X59.209 Y54.203 E0.10427
G1 X59.611 Y53.965 E0.11981
G1 X60.639 Y53.431 E0.15834
G1 X61.311 Y53.139 E0.1827
G1 X61.728 Y52.974 E0.19762
G1 X62.851 Y52.6 E0.23699
G1 X63.56 Y52.417 E0.26134
G1 X63.984 Y52.322 E0.27579
G1 X65.126 Y52.131 E0.31431
G1 X65.857 Y52.062 E0.33873
G1 X66.812 Y52.011 E0.37054
G1 X67.494 Y52 E0.39322
G1 X152.308 Y52 E3.21415
G1 X153.431 Y52.022 E3.25151
G1 X154.212 Y52.067 E3.27752
G1 X154.756 Y52.119 E3.2957
G1 X155.711 Y52.254 E3.32778
G1 X156.41 Y52.408 E3.35159
G1 X156.954 Y52.547 E3.37026
G1 X158.127 Y52.919 E3.41119
G1 X158.818 Y53.194 E3.43593
G1 X159.239 Y53.377 E3.45119
G1 X160.051 Y53.773 E3.48124
G1 X160.598 Y54.09 E3.50227
G1 X161.157 Y54.436 E3.52414
G1 X162.226 Y55.191 E3.56766
G1 X162.779 Y55.649 E3.59155
G1 X163.113 Y55.944 E3.60637
G1 X163.796 Y56.603 E3.63793
G1 X164.192 Y57.042 E3.6576
G1 X164.615 Y57.54 E3.67933
G1 X165.209 Y58.303 E3.71149
G1 X165.601 Y58.898 E3.73519
G1 X165.95 Y59.468 E3.75742
G1 X166.416 Y60.313 E3.78951
G1 X166.726 Y60.995 E3.81443
G1 X166.981 Y61.616 E3.83676
G1 X167.398 Y62.841 E3.8798
G1 X167.583 Y63.56 E3.90449
G1 X167.677 Y63.983 E3.9189
G1 X167.871 Y65.143 E3.95802
G1 X167.939 Y65.867 E3.98221
G1 X167.988 Y66.784 E4.01275
G1 X168 Y67.506 E4.03677
G1 X167.998 Y152.516 E6.86421
G1 X167.978 Y153.43 E6.89462
G1 X167.935 Y154.193 E6.92004
G1 X167.889 Y154.683 E6.93641
G1 X167.766 Y155.577 E6.96642
G1 X167.631 Y156.226 E6.98847
G1 X167.479 Y156.849 E7.0098
G1 X167.082 Y158.125 E7.05424
G1 X166.806 Y158.818 E7.07905
G1 X166.623 Y159.239 E7.09432
G1 X166.227 Y160.051 E7.12437
G1 X165.91 Y160.598 E7.1454
G1 X165.564 Y161.157 E7.16726
G1 X164.824 Y162.208 E7.21002
G1 X164.344 Y162.789 E7.23508
G1 X164.043 Y163.129 E7.25019
G1 X163.416 Y163.779 E7.28022
G1 X162.95 Y164.2 E7.30111
G1 X162.459 Y164.617 E7.32254
G1 X161.36 Y165.437 E7.36814
G1 X160.771 Y165.808 E7.3913
G1 X160.36 Y166.051 E7.40718
G1 X159.511 Y166.501 E7.43913
G1 X158.984 Y166.734 E7.4583
G1 X158.372 Y166.985 E7.4803
G1 X157.181 Y167.391 E7.52215
G1 X156.44 Y167.583 E7.54761
G1 X156.016 Y167.678 E7.56206
G1 X154.874 Y167.869 E7.60057
G1 X154.143 Y167.938 E7.625
G1 X153.188 Y167.989 E7.6568
G1 X152.494 Y168 E7.67989
G1 X99.141 Y167.998 E9.45442
G1 X98.225 Y167.978 E9.48489
G1 X97.442 Y167.933 E9.51098
G1 X96.899 Y167.881 E9.52912
G1 X95.944 Y167.746 E9.5612
G1 X95.247 Y167.592 E9.58494
G1 X94.703 Y167.453 E9.60361
G1 X93.53 Y167.081 E9.64454
G1 X92.839 Y166.806 E9.66928
G1 X92.418 Y166.623 E9.68455
G1 X91.606 Y166.227 E9.7146
G1 X91.059 Y165.91 E9.73562
G1 X90.5 Y165.564 E9.75749
G1 X89.44 Y164.816 E9.80064
G1 X88.787 Y164.271 E9.82893
G1 X88.336 Y163.865 E9.84911
G1 X87.927 Y163.478 E9.86784
G1 X56.865 Y132.423 E11.32874
G1 X56.164 Y131.697 E11.3623
G1 X55.653 Y131.128 E11.38774
G1 X55.27 Y130.669 E11.40762
G1 X54.703 Y129.924 E11.43876
G1 X54.239 Y129.197 E11.46745
G1 X53.922 Y128.654 E11.48836
G1 X53.477 Y127.806 E11.52021
G1 X53.26 Y127.314 E11.5381
G1 X53.013 Y126.711 E11.55977
G1 X52.609 Y125.524 E11.60147
G1 X52.417 Y124.783 E11.62693
G1 X52.322 Y124.359 E11.64138
G1 X52.131 Y123.217 E11.67989
G1 X52.062 Y122.486 E11.70432
G1 X52.011 Y121.531 E11.73612
G1 X52 Y120.837 E11.75921
G1 X52.002 Y67.484 E13.53374
G1 X52.022 Y66.568 E13.56421
G1 X52.067 Y65.785 E13.5903
G1 X52.119 Y65.242 E13.60844
G1 X52.254 Y64.287 E13.64052
G1 X52.408 Y63.59 E13.66426
G1 X52.547 Y63.046 E13.68294
G1 X52.924 Y61.86 E13.72433
G1 X53.197 Y61.174 E13.74888
G1 X53.377 Y60.76 E13.7639
G1 X53.773 Y59.948 E13.79395
G1 X54.09 Y59.402 E13.81495
G1 X54.436 Y58.843 E13.83681
G1 X55.182 Y57.786 E13.87984
G1 X55.69 Y57.173 E13.90632
G1 X56.027 Y56.795 E13.92316
G1 X56.714 Y56.093 E13.95583
G0 F9000 X56.978 Y56.393
G1 F1800 X57.474 Y55.956 E13.97782
G1 X57.915 Y55.592 E13.99684
G1 X58.853 Y54.901 E14.03559
G1 X59.413 Y54.547 E14.05762
G1 X59.796 Y54.32 E14.07243
G1 X60.799 Y53.798 E14.11004
G1 X61.459 Y53.511 E14.13398
G1 X61.854 Y53.354 E14.14811
G1 X62.977 Y52.98 E14.18748
G1 X63.647 Y52.807 E14.2105
G1 X64.05 Y52.717 E14.22423
G1 X65.192 Y52.526 E14.26274
G1 X65.878 Y52.461 E14.28566
G1 X66.818 Y52.411 E14.31697
G1 X67.5 Y52.4 E14.33965
G1 X152.3 Y52.4 E17.16011
G1 X153.408 Y52.421 E17.19697
G1 X154.174 Y52.465 E17.22249
G1 X154.7 Y52.515 E17.24007
G1 X155.625 Y52.645 E17.27113
G1 X156.311 Y52.796 E17.2945
G1 X156.855 Y52.935 E17.31317
G1 X158.006 Y53.3 E17.35333
G1 X158.659 Y53.561 E17.37672
G1 X159.064 Y53.737 E17.39141
G1 X159.876 Y54.133 E17.42146
G1 X160.388 Y54.43 E17.44114
G1 X160.927 Y54.763 E17.46222
G1 X161.971 Y55.499 E17.5047
G1 X162.514 Y55.949 E17.52816
G1 X162.835 Y56.232 E17.54239
G1 X163.518 Y56.891 E17.57396
G1 X163.887 Y57.301 E17.5923
G1 X164.3 Y57.786 E17.61349
G1 X164.875 Y58.523 E17.64458
G1 X165.26 Y59.107 E17.66785
G1 X165.6 Y59.661 E17.68947
G1 X166.052 Y60.479 E17.72055
G1 X166.356 Y61.147 E17.74496
G1 X166.602 Y61.745 E17.76647
G1 X167.019 Y62.97 E17.80951
G1 X167.193 Y63.647 E17.83276
G1 X167.283 Y64.049 E17.84646
G1 X167.473 Y65.181 E17.88463
G1 X167.54 Y65.888 E17.90826
G1 X167.588 Y66.791 E17.93833
G1 X167.6 Y67.506 E17.96212
G1 X167.598 Y152.508 E20.78929
G1 X167.579 Y153.408 E20.81923
G1 X167.537 Y154.156 E20.84415
G1 X167.493 Y154.628 E20.85992
G1 X167.37 Y155.522 E20.88993
G1 X167.242 Y156.131 E20.91063
G1 X167.09 Y156.754 E20.93196
G1 X166.7 Y158.006 E20.97558
G1 X166.439 Y158.659 E20.99897
G1 X166.263 Y159.064 E21.01365
G1 X165.867 Y159.876 E21.0437
G1 X165.57 Y160.388 E21.06339
G1 X165.237 Y160.927 E21.08446
G1 X164.516 Y161.953 E21.12617
G1 X164.044 Y162.524 E21.15081
G1 X163.755 Y162.851 E21.16532
G1 X163.128 Y163.501 E21.19536
G1 X162.691 Y163.895 E21.21493
G1 X162.2 Y164.312 E21.23636
G1 X161.147 Y165.099 E21.28008
G1 X160.568 Y165.464 E21.30285
G1 X160.172 Y165.698 E21.31814
G1 X159.349 Y166.135 E21.34914
G1 X158.832 Y166.364 E21.36794
G1 X158.243 Y166.606 E21.38912
G1 X157.052 Y167.012 E21.43097
G1 X156.353 Y167.193 E21.45499
G1 X155.95 Y167.283 E21.46872
G1 X154.808 Y167.474 E21.50723
G1 X154.122 Y167.539 E21.53015
G1 X153.182 Y167.589 E21.56146
G1 X152.494 Y167.6 E21.58435
G1 X99.149 Y167.598 E23.35861
G1 X98.248 Y167.579 E23.38858
G1 X97.48 Y167.535 E23.41417
G1 X96.955 Y167.485 E23.43171
G1 X96.03 Y167.355 E23.46278
G1 X95.346 Y167.204 E23.48608
G1 X94.802 Y167.065 E23.50475
G1 X93.651 Y166.7 E23.54491
G1 X92.998 Y166.439 E23.5683
G1 X92.593 Y166.263 E23.58299
G1 X91.781 Y165.867 E23.61304
G1 X91.269 Y165.57 E23.63272
G1 X90.73 Y165.237 E23.6538
G1 X89.696 Y164.509 E23.69585
G1 X89.054 Y163.973 E23.72367
G1 X88.611 Y163.575 E23.74348
G1 X88.21 Y163.195 E23.76185
G1 X57.153 Y132.145 E25.22251
G1 X56.462 Y131.43 E25.25559
G1 X55.96 Y130.871 E25.28058
G1 X55.588 Y130.426 E25.29987
G1 X55.04 Y129.708 E25.32991
G1 X54.584 Y128.995 E25.35806
G1 X54.276 Y128.468 E25.37836
G1 X53.843 Y127.645 E25.40929
G1 X53.63 Y127.162 E25.42685
G1 X53.392 Y126.582 E25.4477
G1 X52.988 Y125.395 E25.4894
G1 X52.807 Y124.696 E25.51342
G1 X52.717 Y124.293 E25.52715
G1 X52.526 Y123.151 E25.56566
G1 X52.461 Y122.465 E25.58858
G1 X52.411 Y121.525 E25.61989
G1 X52.4 Y120.837 E25.64278
G1 X52.402 Y67.492 E27.41704
G1 X52.421 Y66.591 E27.44701
G1 X52.465 Y65.823 E27.4726
G1 X52.515 Y65.298 E27.49014
G1 X52.645 Y64.373 E27.52121
G1 X52.796 Y63.689 E27.54451
G1 X52.935 Y63.145 E27.56318
G1 X53.305 Y61.981 E27.6038
G1 X53.564 Y61.333 E27.62701
G1 X53.737 Y60.935 E27.64145
G1 X54.133 Y60.123 E27.6715
G1 X54.43 Y59.612 E27.69115
G1 X54.763 Y59.073 E27.71223
G1 X55.49 Y58.041 E27.75421
G1 X55.989 Y57.439 E27.78022
G1 X56.326 Y57.061 E27.79706
G1 X56.978 Y56.393 E27.82811
G0 F9000 X57.243 Y56.693
G1 F1800 X57.729 Y56.264 E27.84967
G1 X58.152 Y55.914 E27.86793
G1 X59.067 Y55.239 E27.90575
G1 X59.617 Y54.891 E27.9274
G1 X59.981 Y54.675 E27.94147
G1 X60.984 Y54.153 E27.97908
G1 X61.607 Y53.883 E28.00167
G1 X62.002 Y53.726 E28.0158
G1 X63.077 Y53.367 E28.0535
G1 X63.735 Y53.197 E28.0761
G1 X64.116 Y53.111 E28.08909
G1 X65.23 Y52.924 E28.12666
G1 X65.899 Y52.86 E28.14902
G1 X66.824 Y52.811 E28.17982
G1 X67.506 Y52.8 E28.20251
G1 X152.293 Y52.8 E31.02254
G1 X153.385 Y52.82 E31.05886
G1 X154.136 Y52.863 E31.08388
G1 X154.645 Y52.911 E31.10089
G1 X155.539 Y53.036 E31.13091
G1 X156.212 Y53.184 E31.15383
G1 X156.756 Y53.323 E31.17251
G1 X157.858 Y53.672 E31.21095
G1 X158.5 Y53.928 E31.23394
G1 X158.889 Y54.097 E31.24805
G1 X159.701 Y54.493 E31.27809
G1 X160.178 Y54.77 E31.29644
G1 X160.697 Y55.09 E31.31672
G1 X161.716 Y55.807 E31.35816
G1 X162.249 Y56.249 E31.38119
G1 X162.57 Y56.532 E31.39542
G1 X163.221 Y57.159 E31.42549
G1 X163.583 Y57.561 E31.44348
G1 X163.985 Y58.032 E31.46408
G1 X164.541 Y58.744 E31.49412
G1 X164.919 Y59.316 E31.51693
G1 X165.25 Y59.855 E31.53796
G1 X165.688 Y60.645 E31.56801
G1 X165.986 Y61.3 E31.59194
G1 X166.223 Y61.874 E31.6126
G1 X166.64 Y63.099 E31.65564
G1 X166.803 Y63.735 E31.67747
G1 X166.889 Y64.116 E31.69046
G1 X167.075 Y65.219 E31.72767
G1 X167.141 Y65.909 E31.75072
G1 X167.188 Y66.798 E31.78033
G1 X167.2 Y67.506 E31.80388
G1 X167.198 Y152.5 E34.63079
G1 X167.18 Y153.386 E34.66027
G1 X167.139 Y154.119 E34.68469
G1 X167.097 Y154.573 E34.69985
G1 X166.974 Y155.467 E34.72987
G1 X166.853 Y156.037 E34.74925
G1 X166.708 Y156.635 E34.76971
G1 X166.328 Y157.858 E34.81231
G1 X166.072 Y158.5 E34.8353
G1 X165.903 Y158.889 E34.8494
G1 X165.507 Y159.701 E34.87945
G1 X165.23 Y160.178 E34.8978
G1 X164.91 Y160.697 E34.91808
G1 X164.207 Y161.698 E34.95876
G1 X163.744 Y162.259 E34.98295
G1 X163.467 Y162.573 E34.99688
G1 X162.84 Y163.223 E35.02692
G1 X162.432 Y163.59 E35.04517
G1 X161.96 Y163.992 E35.06579
G1 X160.933 Y164.761 E35.10846
G1 X160.365 Y165.12 E35.13081
G1 X159.984 Y165.345 E35.14553
G1 X159.187 Y165.769 E35.17555
G1 X158.68 Y165.994 E35.194
G1 X158.114 Y166.227 E35.21436
G1 X156.923 Y166.633 E35.25621
G1 X156.265 Y166.803 E35.27882
G1 X155.884 Y166.889 E35.29181
G1 X154.77 Y167.076 E35.32938
G1 X154.101 Y167.14 E35.35173
G1 X153.176 Y167.189 E35.38254
G1 X152.494 Y167.2 E35.40523
G1 X99.157 Y167.198 E37.17922
G1 X98.271 Y167.18 E37.2087
G1 X97.518 Y167.137 E37.23378
G1 X97.01 Y167.089 E37.25075
G1 X96.116 Y166.964 E37.28078
G1 X95.445 Y166.816 E37.30363
G1 X94.901 Y166.677 E37.32231
G1 X93.799 Y166.328 E37.36075
G1 X93.157 Y166.072 E37.38374
G1 X92.768 Y165.903 E37.39785
G1 X91.956 Y165.507 E37.42789
G1 X91.479 Y165.23 E37.44624
G1 X90.96 Y164.91 E37.46652
G1 X89.952 Y164.202 E37.50749
G1 X89.321 Y163.676 E37.53481
G1 X88.886 Y163.285 E37.55427
G1 X88.493 Y162.912 E37.57229
G1 X57.441 Y131.867 E39.03271
G1 X56.75 Y131.152 E39.06579
G1 X56.267 Y130.615 E39.08981
G1 X55.906 Y130.183 E39.10853
G1 X55.358 Y129.465 E39.13857
G1 X54.929 Y128.793 E39.16509
G1 X54.63 Y128.282 E39.18478
G1 X54.209 Y127.483 E39.21482
G1 X54 Y127.01 E39.23202
G1 X53.771 Y126.453 E39.25205
G1 X53.367 Y125.266 E39.29375
G1 X53.197 Y124.608 E39.31636
G1 X53.111 Y124.227 E39.32935
G1 X52.924 Y123.113 E39.36692
G1 X52.86 Y122.444 E39.38927
G1 X52.811 Y121.519 E39.42008
G1 X52.8 Y120.837 E39.44277
G1 X52.802 Y67.5 E41.21676
G1 X52.82 Y66.614 E41.24624
G1 X52.863 Y65.861 E41.27132
G1 X52.911 Y65.353 E41.2883
G1 X53.036 Y64.459 E41.31832
G1 X53.184 Y63.788 E41.34117
G1 X53.323 Y63.244 E41.35985
G1 X53.677 Y62.129 E41.39876
G1 X53.931 Y61.492 E41.42157
G1 X54.097 Y61.11 E41.43542
G1 X54.493 Y60.298 E41.46547
G1 X54.77 Y59.822 E41.48378
G1 X55.09 Y59.303 E41.50406
G1 X55.798 Y58.296 E41.54501
G1 X56.288 Y57.705 E41.57054
G1 X56.613 Y57.34 E41.5868
G1 X57.243 Y56.693 E41.61683
G1 F2400 E40.81683
;MESH:stage_REV3.STL
G0 F9000 X67.42 Y67.227
G0 X70.915 Y73.48
;TYPE:WALL-INNER
G1 F2400 E41.61683
G1 F1800 X70.315 Y73.586 E41.6371
G1 X69.695 Y73.588 E41.65772
G1 X69.102 Y73.488 E41.67772
G1 X68.511 Y73.281 E41.69855
G1 X67.986 Y72.987 E41.71856
G1 X67.504 Y72.601 E41.7391
G1 X67.105 Y72.147 E41.7592
G1 X66.78 Y71.617 E41.77988
G1 X66.557 Y71.057 E41.79993
G1 X66.432 Y70.492 E41.81917
G1 X66.404 Y69.872 E41.83982
G1 X66.474 Y69.242 E41.8609
G1 X66.652 Y68.655 E41.8813
G1 X66.944 Y68.091 E41.90242
G1 X67.277 Y67.642 E41.92102
G1 X67.747 Y67.187 E41.94277
G1 X68.236 Y66.854 E41.96245
G1 X68.802 Y66.603 E41.98305
G1 X69.376 Y66.451 E42.00279
G1 X69.996 Y66.393 E42.02351
G1 X70.612 Y66.451 E42.04408
G1 X71.19 Y66.598 E42.06392
G1 X71.751 Y66.848 E42.08435
G1 X72.258 Y67.191 E42.10471
G1 X72.701 Y67.614 E42.12508
G1 X73.066 Y68.108 E42.14551
G1 X73.338 Y68.649 E42.16565
G1 X73.521 Y69.232 E42.18597
G1 X73.598 Y69.838 E42.20629
G1 X73.57 Y70.461 E42.22703
G1 X73.445 Y71.041 E42.24677
G1 X73.229 Y71.592 E42.26645
G1 X72.901 Y72.129 E42.28738
G1 X72.481 Y72.604 E42.30847
G1 X71.998 Y72.994 E42.32912
G1 X71.451 Y73.293 E42.34985
G1 X70.915 Y73.48 E42.36873
G1 F2400 E41.56873
G0 F9000 X70.332 Y73.766
G0 X70.258 Y95.391
G0 X70.443 Y100.838
G1 F2400 E42.36873
G1 F1800 X69.968 Y101.005 E42.38548
G1 X69.551 Y101.08 E42.39957
G1 X69.002 Y101.093 E42.41783
G1 X68.482 Y100.991 E42.43546
G1 X68.078 Y100.85 E42.44969
G1 X67.652 Y100.612 E42.46592
G1 X67.267 Y100.3 E42.4824
G1 X66.929 Y99.9 E42.49982
G1 X66.703 Y99.534 E42.51413
G1 X66.525 Y99.097 E42.52982
G1 X66.424 Y98.64 E42.54539
G1 X66.4 Y98.148 E42.56177
G1 X66.459 Y97.655 E42.57829
G1 X66.6 Y97.185 E42.59461
G1 X66.822 Y96.746 E42.61097
G1 X67.146 Y96.329 E42.62853
G1 X67.458 Y96.026 E42.643
G1 X67.854 Y95.757 E42.65892
G1 X68.3 Y95.56 E42.67514
G1 X68.764 Y95.438 E42.6911
G1 X69.25 Y95.392 E42.70733
G1 X69.735 Y95.441 E42.72355
G1 X70.196 Y95.559 E42.73937
G1 X70.625 Y95.751 E42.755
G1 X71.024 Y96.015 E42.77092
G1 X71.39 Y96.367 E42.78781
G1 X71.678 Y96.756 E42.80391
G1 X71.889 Y97.173 E42.81945
G1 X72.032 Y97.639 E42.83566
G1 X72.096 Y98.113 E42.85157
G1 X72.075 Y98.625 E42.86861
G1 X71.975 Y99.079 E42.88408
G1 X71.804 Y99.516 E42.89968
G1 X71.555 Y99.919 E42.91544
G1 X71.243 Y100.282 E42.93136
G1 X70.87 Y100.592 E42.94749
G1 X70.443 Y100.838 E42.96388
G1 F2400 E42.16388
G0 F9000 X71.414 Y99.85
G0 X71.745 Y99.192
G0 X72.202 Y97.575
G0 X96.549 Y71.762
G0 X98.496 Y72.087
G1 F2400 E42.96388
G1 F1800 X98.023 Y72.092 E42.97961
G1 X97.542 Y72.009 E42.99585
G1 X97.091 Y71.854 E43.01171
G1 X96.664 Y71.618 E43.02794
G1 X96.299 Y71.327 E43.04346
G1 X95.964 Y70.95 E43.06024
G1 X95.699 Y70.521 E43.07701
G1 X95.525 Y70.097 E43.09225
G1 X95.421 Y69.617 E43.10859
G1 X95.398 Y69.121 E43.1251
G1 X95.473 Y68.607 E43.14238
G1 X95.601 Y68.183 E43.15711
G1 X95.824 Y67.742 E43.17355
G1 X96.146 Y67.329 E43.19096
G1 X96.458 Y67.026 E43.20543
G1 X96.854 Y66.757 E43.22135
G1 X97.301 Y66.559 E43.23761
G1 X97.764 Y66.44 E43.25351
G1 X98.247 Y66.393 E43.26965
G1 X98.732 Y66.438 E43.28585
G1 X99.196 Y66.56 E43.30181
G1 X99.64 Y66.756 E43.31795
G1 X100.041 Y67.025 E43.33401
G1 X100.39 Y67.364 E43.3502
G1 X100.676 Y67.749 E43.36615
G1 X100.896 Y68.188 E43.38248
G1 X101.038 Y68.65 E43.39856
G1 X101.098 Y69.125 E43.41448
G1 X101.078 Y69.622 E43.43102
G1 X100.974 Y70.082 E43.44671
G1 X100.802 Y70.518 E43.4623
G1 X100.522 Y70.964 E43.47981
G1 X100.23 Y71.296 E43.49452
G1 X99.847 Y71.608 E43.51095
G1 X99.418 Y71.85 E43.52733
G1 X99.004 Y71.995 E43.54192
G1 X98.496 Y72.087 E43.55909
G1 F2400 E42.75909
G0 F9000 X97.957 Y72.187
