;FLAVOR:Marlin
;TIME:3977
;Filament used: 3.09566m
;Layer height: 0.28
;MINX:53.304
;MINY:91.054
;MINZ:0.28
;MAXX:133.484
;MAXY:141.737
;MAXZ:45
;Generated with Creality Slicer 4.8.2-291
M140 S60
M105
M190 S60
M104 S205
M105
M109 S205
M82 ;absolute extrusion mode

G28 ;Home

G92 E0 ;Reset Extruder
G1 Z2.0 F3000 ;Move Z Axis up
G1 X10.1 Y20 Z0.28 F5000.0 ;Move to start position
G1 X10.1 Y200.0 Z0.28 F1500.0 E15 ;Draw the first line
G1 X10.4 Y200.0 Z0.28 F5000.0 ;Move to side a little
G1 X10.4 Y20 Z0.28 F1500.0 E30 ;Draw the second line
G92 E0 ;Reset Extruder
G1 Z2.0 F3000 ;Move Z Axis up

G92 E0
G92 E0
G1 F2400 E-0.8
;LAYER_COUNT:160
;LAYER:0
M107
G1 F300 Z0.48
G0 F7500 X64.156 Y95.3 Z0.48
;TYPE:SKIRT
G1 F300 Z0.28
G1 F2400 E0
G1 F1500 X64.456 Y95.099 E0.01681
G1 X64.834 Y94.857 E0.03771
G1 X65.394 Y94.514 E0.06829
G1 X65.703 Y94.331 E0.08502
G1 X66.132 Y94.09 E0.10793
G1 X66.479 Y93.905 E0.12624
G1 X67.066 Y93.605 E0.15693
G1 X67.453 Y93.417 E0.17697
G1 X67.788 Y93.262 E0.19416
G1 X68.167 Y93.095 E0.21344
G1 X68.732 Y92.859 E0.24195
G1 X69.027 Y92.741 E0.25675
G1 X69.368 Y92.61 E0.27376
G1 X69.834 Y92.442 E0.29682
G1 X70.503 Y92.219 E0.32966
G1 X70.814 Y92.121 E0.34484
G1 X71.1 Y92.035 E0.35875
G1 X71.555 Y91.909 E0.38073
G1 X72.223 Y91.739 E0.41283
G1 X72.603 Y91.648 E0.43102
G1 X72.93 Y91.578 E0.4466
G1 X73.2 Y91.524 E0.45942
G1 X73.482 Y91.471 E0.47278
G1 X74.066 Y91.37 E0.50038
G1 X74.443 Y91.311 E0.51814
G1 X74.814 Y91.26 E0.53558
G1 X75.235 Y91.211 E0.55532
G1 X75.896 Y91.146 E0.58624
G1 X76.218 Y91.119 E0.60129
G1 X76.494 Y91.1 E0.61417
G1 X76.825 Y91.082 E0.62961
G1 X77.098 Y91.072 E0.64233
G1 X77.744 Y91.057 E0.67242
G1 X78.046 Y91.054 E0.68648
G1 X78.278 Y91.055 E0.69728
G1 X78.57 Y91.06 E0.71088
G1 X78.963 Y91.075 E0.7292
G1 X79.58 Y91.107 E0.75796
G1 X79.892 Y91.127 E0.77252
G1 X80.178 Y91.15 E0.78588
G1 X80.503 Y91.181 E0.80108
G1 X80.773 Y91.212 E0.81374
G1 X81.433 Y91.296 E0.84472
G1 X81.745 Y91.34 E0.85939
G1 X82.217 Y91.417 E0.88166
G1 X82.6 Y91.488 E0.8998
G1 X83.251 Y91.619 E0.93072
G1 X83.631 Y91.703 E0.94884
G1 X84.057 Y91.806 E0.96925
G1 X84.662 Y91.963 E0.99835
G1 X87.177 Y92.576 E1.11889
G1 X89.608 Y93.096 E1.23465
G1 X92.136 Y93.564 E1.35436
G1 X94.577 Y93.941 E1.46937
G1 X97.07 Y94.257 E1.58639
G1 X99.592 Y94.504 E1.70438
G1 X102.109 Y94.679 E1.82187
G1 X104.629 Y94.782 E1.93931
G1 X107.156 Y94.814 E2.05699
G1 X109.103 Y94.791 E2.14765
G1 X109.758 Y94.776 E2.17816
G1 X110.36 Y94.779 E2.20619
G1 X110.637 Y94.788 E2.2191
G1 X110.96 Y94.803 E2.23415
G1 X111.724 Y94.852 E2.2698
G1 X112.51 Y94.915 E2.30652
G1 X113.35 Y95.015 E2.34591
G1 X113.508 Y95.04 E2.35336
G1 X113.808 Y95.092 E2.36754
G1 X114.274 Y95.179 E2.38961
G1 X114.611 Y95.247 E2.40562
G1 X115.578 Y95.459 E2.45171
G1 X116.564 Y95.724 E2.49926
G1 X117.489 Y96.019 E2.54447
G1 X117.835 Y96.136 E2.56147
G1 X118.47 Y96.362 E2.59286
G1 X119.376 Y96.73 E2.63839
G1 X119.711 Y96.884 E2.65556
G1 X119.973 Y97.009 E2.66908
G1 X120.543 Y97.291 E2.69869
G1 X121.215 Y97.633 E2.7338
G1 X121.922 Y98.025 E2.77144
G1 X122.036 Y98.094 E2.77765
G1 X122.321 Y98.273 E2.79332
G1 X122.92 Y98.663 E2.8266
G1 X123.256 Y98.889 E2.84546
G1 X123.725 Y99.211 E2.87195
G1 X124.252 Y99.596 E2.90234
G1 X124.495 Y99.785 E2.91667
G1 X124.901 Y100.116 E2.94106
G1 X125.261 Y100.426 E2.96319
G1 X125.692 Y100.805 E2.98991
G1 X126.102 Y101.174 E3.0156
G1 X126.706 Y101.761 E3.05481
G1 X126.934 Y102.004 E3.07033
G1 X127.623 Y102.76 E3.11796
G1 X127.878 Y103.05 E3.13594
G1 X128.289 Y103.534 E3.16551
G1 X128.855 Y104.26 E3.20837
G1 X129.035 Y104.512 E3.22279
G1 X129.21 Y104.765 E3.23712
G1 X129.64 Y105.407 E3.2731
G1 X129.977 Y105.927 E3.30195
G1 X130.393 Y106.623 E3.33971
G1 X130.557 Y106.93 E3.35591
G1 X131.042 Y107.868 E3.40508
G1 X131.215 Y108.216 E3.42318
G1 X131.487 Y108.791 E3.4528
G1 X131.826 Y109.588 E3.49313
G1 X131.902 Y109.788 E3.50309
G1 X131.993 Y110.038 E3.51548
G1 X132.129 Y110.426 E3.53462
G1 X132.304 Y110.941 E3.55995
G1 X132.464 Y111.427 E3.58378
G1 X132.613 Y111.918 E3.60767
G1 X132.677 Y112.148 E3.61879
G1 X132.842 Y112.822 E3.6511
G1 X132.979 Y113.47 E3.68194
G1 X133.038 Y113.771 E3.69622
G1 X133.208 Y114.703 E3.74033
G1 X133.342 Y115.686 E3.78653
G1 X133.377 Y116.073 E3.80462
G1 X133.398 Y116.345 E3.81733
G1 X133.439 Y116.976 E3.84677
G1 X133.476 Y117.701 E3.88057
G1 X133.484 Y118.618 E3.92327
G1 X133.475 Y118.896 E3.93623
G1 X133.459 Y119.233 E3.95194
G1 X133.414 Y119.932 E3.98455
G1 X133.36 Y120.626 E4.01696
G1 X133.324 Y121.001 E4.03451
G1 X133.304 Y121.179 E4.04285
G1 X133.229 Y121.727 E4.0686
G1 X133.185 Y121.996 E4.08129
G1 X133.124 Y122.334 E4.09729
G1 X132.974 Y123.093 E4.13331
G1 X132.856 Y123.646 E4.15964
G1 X132.77 Y124.018 E4.17742
G1 X132.72 Y124.218 E4.18702
G1 X132.565 Y124.774 E4.2139
G1 X132.462 Y125.11 E4.23026
G1 X132.357 Y125.433 E4.24608
G1 X132.189 Y125.926 E4.27033
G1 X131.911 Y126.71 E4.30906
G1 X131.558 Y127.583 E4.35291
G1 X131.439 Y127.845 E4.36631
G1 X131.292 Y128.157 E4.38237
G1 X130.928 Y128.893 E4.4206
G1 X130.625 Y129.488 E4.45169
G1 X130.16 Y130.312 E4.49575
G1 X129.975 Y130.609 E4.51204
G1 X129.808 Y130.868 E4.52639
G1 X129.387 Y131.501 E4.56179
G1 X129.083 Y131.943 E4.58677
G1 X128.92 Y132.174 E4.59994
G1 X128.774 Y132.375 E4.61151
G1 X128.341 Y132.932 E4.64436
G1 X128.166 Y133.143 E4.65712
G1 X127.981 Y133.36 E4.6704
G1 X127.491 Y133.919 E4.70501
G1 X127.002 Y134.461 E4.739
G1 X126.347 Y135.128 E4.78253
G1 X126.117 Y135.343 E4.79719
G1 X125.876 Y135.561 E4.81233
G1 X125.316 Y136.052 E4.84701
G1 X124.753 Y136.53 E4.8814
G1 X124.656 Y136.61 E4.88725
G1 X123.938 Y137.154 E4.9292
G1 X123.051 Y137.771 E4.97951
G1 X122.736 Y137.982 E4.99716
G1 X122.214 Y138.319 E5.02609
G1 X121.445 Y138.773 E5.06768
G1 X121.195 Y138.907 E5.08088
G1 X120.884 Y139.067 E5.09717
G1 X120.12 Y139.444 E5.13684
G1 X119.656 Y139.664 E5.16075
G1 X119.055 Y139.928 E5.19132
G1 X118.725 Y140.061 E5.20789
G1 X118.313 Y140.217 E5.2284
G1 X117.613 Y140.467 E5.26301
G1 X117.275 Y140.582 E5.27964
G1 X116.571 Y140.808 E5.31406
G1 X115.701 Y141.048 E5.35609
G1 X115.443 Y141.108 E5.36842
G1 X115.116 Y141.179 E5.384
G1 X114.427 Y141.316 E5.41671
G1 X113.729 Y141.445 E5.44977
G1 X113.32 Y141.512 E5.46906
G1 X113.142 Y141.538 E5.47744
G1 X112.595 Y141.604 E5.5031
G1 X112.169 Y141.643 E5.52302
G1 X111.81 Y141.67 E5.53978
G1 X111.288 Y141.702 E5.56413
G1 X110.664 Y141.734 E5.59323
G1 X109.613 Y141.737 E5.64217
G1 X108.6 Y141.692 E5.68938
G1 X108.197 Y141.667 E5.70818
G1 X107.446 Y141.606 E5.74327
G1 X106.496 Y141.487 E5.78785
G1 X105.51 Y141.319 E5.83442
G1 X103.736 Y141.006 E5.9183
G1 X101.232 Y140.636 E6.03617
G1 X98.78 Y140.345 E6.15114
G1 X96.217 Y140.114 E6.27097
G1 X93.737 Y139.961 E6.38667
G1 X91.207 Y139.876 E6.50454
G1 X88.69 Y139.864 E6.62175
G1 X86.167 Y139.923 E6.73926
G1 X83.674 Y140.051 E6.8555
G1 X80.714 Y140.294 E6.99379
G1 X80.104 Y140.354 E7.02233
G1 X79.782 Y140.381 E7.03738
G1 X79.506 Y140.4 E7.05026
G1 X79.175 Y140.418 E7.0657
G1 X78.902 Y140.428 E7.07842
G1 X78.256 Y140.443 E7.10851
G1 X77.954 Y140.446 E7.12257
G1 X77.722 Y140.445 E7.13337
G1 X77.43 Y140.44 E7.14697
G1 X77.037 Y140.425 E7.16528
G1 X76.42 Y140.393 E7.19405
G1 X76.108 Y140.373 E7.20861
G1 X75.822 Y140.35 E7.22197
G1 X75.497 Y140.319 E7.23717
G1 X75.227 Y140.288 E7.24983
G1 X74.567 Y140.204 E7.28081
G1 X74.255 Y140.16 E7.29548
G1 X73.783 Y140.083 E7.31775
G1 X73.4 Y140.012 E7.33589
G1 X72.749 Y139.881 E7.36681
G1 X72.291 Y139.779 E7.38866
G1 X71.917 Y139.687 E7.40659
G1 X71.521 Y139.581 E7.42568
G1 X70.951 Y139.418 E7.45328
G1 X70.694 Y139.341 E7.46578
G1 X70.438 Y139.261 E7.47827
G1 X70.035 Y139.128 E7.49803
G1 X69.782 Y139.038 E7.51053
G1 X69.206 Y138.826 E7.53911
G1 X68.91 Y138.712 E7.55388
G1 X68.561 Y138.572 E7.57139
G1 X68.111 Y138.38 E7.59417
G1 X67.516 Y138.11 E7.6246
G1 X67.1 Y137.913 E7.64603
G1 X66.778 Y137.752 E7.66279
G1 X66.411 Y137.557 E7.68214
G1 X65.896 Y137.275 E7.70949
G1 X65.584 Y137.098 E7.72619
G1 X65.281 Y136.919 E7.74258
G1 X64.908 Y136.688 E7.763
G1 X64.315 Y136.305 E7.79588
G1 X64.041 Y136.122 E7.81122
G1 X63.819 Y135.969 E7.82377
G1 X63.549 Y135.777 E7.8392
G1 X63.355 Y135.634 E7.85042
G1 X62.818 Y135.228 E7.88177
G1 X62.497 Y134.977 E7.90074
G1 X62.242 Y134.768 E7.9161
G1 X62.036 Y134.594 E7.92865
G1 X61.82 Y134.407 E7.94196
G1 X61.346 Y133.985 E7.97151
G1 X61.145 Y133.801 E7.9842
G1 X60.943 Y133.612 E7.99708
G1 X60.572 Y133.249 E8.02125
G1 X60.076 Y132.739 E8.05437
G1 X59.89 Y132.543 E8.06695
G1 X59.728 Y132.368 E8.07806
G1 X59.526 Y132.144 E8.0921
G1 X59.258 Y131.833 E8.11122
G1 X58.858 Y131.354 E8.14028
G1 X58.578 Y131.008 E8.161
G1 X58.373 Y130.742 E8.17664
G1 X58.236 Y130.559 E8.18729
G1 X58.085 Y130.352 E8.19922
G1 X57.72 Y129.84 E8.2285
G1 X57.544 Y129.586 E8.24289
G1 X57.354 Y129.303 E8.25876
G1 X57.083 Y128.879 E8.28219
G1 X56.731 Y128.299 E8.31378
G1 X56.536 Y127.965 E8.33179
G1 X56.344 Y127.622 E8.35009
G1 X56.136 Y127.231 E8.37072
G1 X55.818 Y126.605 E8.40341
G1 X55.65 Y126.26 E8.42128
G1 X55.531 Y126.004 E8.43442
G1 X55.359 Y125.615 E8.45423
G1 X55.107 Y125.013 E8.48462
G1 X55.003 Y124.755 E8.49757
G1 X54.894 Y124.475 E8.51156
G1 X54.714 Y123.977 E8.53622
G1 X54.477 Y123.269 E8.57098
G1 X54.373 Y122.942 E8.58696
G1 X54.294 Y122.679 E8.59975
G1 X54.197 Y122.338 E8.61626
G1 X54.141 Y122.126 E8.62647
G1 X53.988 Y121.524 E8.65539
G1 X53.909 Y121.193 E8.67124
G1 X53.829 Y120.821 E8.68895
G1 X53.777 Y120.562 E8.70125
G1 X53.725 Y120.281 E8.71456
G1 X53.62 Y119.677 E8.74311
G1 X53.57 Y119.362 E8.75796
G1 X53.507 Y118.913 E8.77907
G1 X53.485 Y118.734 E8.78747
G1 X53.456 Y118.466 E8.80002
G1 X53.394 Y117.834 E8.82959
G1 X53.367 Y117.52 E8.84427
G1 X53.349 Y117.26 E8.8564
G1 X53.328 Y116.863 E8.87491
G1 X53.307 Y115.984 E8.91586
G1 X53.304 Y115.699 E8.92913
G1 X53.305 Y115.452 E8.94063
G1 X53.315 Y115.015 E8.96098
G1 X53.324 Y114.8 E8.971
G1 X53.359 Y114.131 E9.0022
G1 X53.38 Y113.82 E9.01671
G1 X53.415 Y113.399 E9.03638
G1 X53.464 Y112.943 E9.05774
G1 X53.54 Y112.344 E9.08585
G1 X53.585 Y112.027 E9.10076
G1 X53.624 Y111.778 E9.1125
G1 X53.694 Y111.375 E9.13154
G1 X53.744 Y111.11 E9.1441
G1 X53.872 Y110.48 E9.17404
G1 X53.979 Y110.01 E9.19648
G1 X54.06 Y109.685 E9.21208
G1 X54.152 Y109.336 E9.22888
G1 X54.332 Y108.703 E9.25953
G1 X54.482 Y108.213 E9.28339
G1 X54.573 Y107.934 E9.29705
G1 X54.707 Y107.549 E9.31604
G1 X54.925 Y106.954 E9.34554
G1 X55.03 Y106.68 E9.35921
G1 X55.134 Y106.418 E9.37233
G1 X55.276 Y106.076 E9.38957
G1 X55.375 Y105.85 E9.40106
G1 X55.629 Y105.29 E9.4297
G1 X55.752 Y105.029 E9.44313
G1 X55.87 Y104.786 E9.45571
G1 X56.07 Y104.392 E9.47628
G1 X56.193 Y104.161 E9.48847
G1 X56.492 Y103.615 E9.51746
G1 X56.647 Y103.34 E9.53216
G1 X56.76 Y103.147 E9.54257
G1 X56.978 Y102.789 E9.56209
G1 X57.103 Y102.591 E9.57299
G1 X57.439 Y102.072 E9.60178
G1 X57.639 Y101.774 E9.61849
G1 X57.837 Y101.489 E9.63465
G1 X58.106 Y101.119 E9.65595
G1 X58.542 Y100.544 E9.68955
G1 X58.818 Y100.193 E9.71034
G1 X58.959 Y100.02 E9.72074
G1 X59.137 Y99.807 E9.73366
G1 X59.37 Y99.538 E9.75023
G1 X59.759 Y99.102 E9.77744
G1 X59.951 Y98.892 E9.79069
G1 X60.169 Y98.66 E9.80552
G1 X60.52 Y98.303 E9.82883
G1 X61.012 Y97.825 E9.86077
G1 X61.377 Y97.483 E9.88406
G1 X61.651 Y97.237 E9.90121
G1 X61.897 Y97.026 E9.9163
G1 X62.414 Y96.593 E9.9477
G1 X62.661 Y96.392 E9.96253
G1 X62.998 Y96.131 E9.98238
G1 X63.406 Y95.829 E10.00601
G1 X63.891 Y95.483 E10.03375
G1 X64.156 Y95.3 E10.04875
G0 F7500 X64.379 Y95.632
G1 F1500 X64.679 Y95.431 E10.06556
G1 X65.042 Y95.198 E10.08565
G1 X65.602 Y94.855 E10.11623
G1 X65.901 Y94.679 E10.13238
G1 X66.323 Y94.441 E10.15494
G1 X66.661 Y94.261 E10.17277
G1 X67.248 Y93.961 E10.20347
G1 X67.621 Y93.78 E10.22278
G1 X67.956 Y93.625 E10.23996
G1 X68.321 Y93.464 E10.25854
G1 X68.886 Y93.228 E10.28705
G1 X69.171 Y93.114 E10.30134
G1 X69.512 Y92.983 E10.31835
G1 X69.961 Y92.822 E10.34056
G1 X70.63 Y92.599 E10.3734
G1 X70.93 Y92.504 E10.38805
G1 X71.216 Y92.418 E10.40196
G1 X71.654 Y92.296 E10.42313
G1 X72.322 Y92.126 E10.45523
G1 X72.694 Y92.038 E10.47303
G1 X73.008 Y91.97 E10.48799
G1 X73.278 Y91.916 E10.50081
G1 X73.551 Y91.865 E10.51374
G1 X74.135 Y91.764 E10.54134
G1 X74.497 Y91.708 E10.5584
G1 X74.868 Y91.657 E10.57583
G1 X75.275 Y91.609 E10.59492
G1 X75.936 Y91.544 E10.62584
G1 X76.245 Y91.518 E10.64028
G1 X76.74 Y91.486 E10.66338
G1 X77.107 Y91.472 E10.68048
G1 X77.753 Y91.457 E10.71057
G1 X78.045 Y91.454 E10.72417
G1 X78.277 Y91.455 E10.73497
G1 X78.72 Y91.465 E10.7556
G1 X78.942 Y91.474 E10.76595
G1 X79.559 Y91.506 E10.79472
G1 X79.86 Y91.526 E10.80876
G1 X80.146 Y91.549 E10.82213
G1 X80.462 Y91.579 E10.83691
G1 X80.722 Y91.609 E10.84909
G1 X81.382 Y91.693 E10.88007
G1 X81.683 Y91.736 E10.89423
G1 X82.147 Y91.811 E10.91612
G1 X82.521 Y91.88 E10.93383
G1 X83.172 Y92.011 E10.96475
G1 X83.538 Y92.092 E10.9822
G1 X83.956 Y92.194 E11.00224
G1 X84.531 Y92.343 E11.0299
G1 X87.063 Y92.961 E11.15126
G1 X89.566 Y93.495 E11.27043
G1 X92.035 Y93.953 E11.38736
G1 X94.542 Y94.34 E11.50548
G1 X97.048 Y94.657 E11.6231
G1 X99.526 Y94.9 E11.73904
G1 X102.099 Y95.079 E11.85914
G1 X104.608 Y95.182 E11.97606
G1 X107.156 Y95.214 E12.09472
G1 X109.117 Y95.19 E12.18604
G1 X109.767 Y95.176 E12.21631
G1 X110.347 Y95.179 E12.24332
G1 X110.624 Y95.188 E12.25622
G1 X110.935 Y95.202 E12.27072
G1 X111.5 Y95.237 E12.29708
G1 X112.478 Y95.314 E12.34276
G1 X113.288 Y95.41 E12.38074
G1 X113.446 Y95.435 E12.38819
G1 X113.734 Y95.485 E12.4018
G1 X114.2 Y95.572 E12.42388
G1 X114.525 Y95.638 E12.43932
G1 X115.492 Y95.85 E12.48541
G1 X116.443 Y96.105 E12.53126
G1 X117.368 Y96.4 E12.57647
G1 X117.701 Y96.513 E12.59284
G1 X118.336 Y96.739 E12.62423
G1 X119.209 Y97.094 E12.66811
G1 X119.544 Y97.248 E12.68528
G1 X119.796 Y97.368 E12.69828
G1 X120.362 Y97.647 E12.72766
G1 X121.034 Y97.989 E12.76277
G1 X121.715 Y98.368 E12.79906
G1 X121.829 Y98.437 E12.80527
G1 X122.103 Y98.609 E12.82033
G1 X122.697 Y98.995 E12.85332
G1 X123.03 Y99.218 E12.87198
G1 X123.499 Y99.54 E12.89847
G1 X124.007 Y99.912 E12.92779
G1 X124.25 Y100.101 E12.94212
G1 X124.64 Y100.42 E12.96558
G1 X124.997 Y100.726 E12.98748
G1 X125.424 Y101.102 E13.01397
G1 X125.834 Y101.471 E13.03966
G1 X126.416 Y102.037 E13.07746
G1 X126.638 Y102.274 E13.09258
G1 X127.327 Y103.03 E13.14021
G1 X127.573 Y103.309 E13.15753
G1 X127.984 Y103.793 E13.18709
G1 X128.53 Y104.493 E13.22843
G1 X128.71 Y104.745 E13.24285
G1 X128.878 Y104.988 E13.25661
G1 X129.304 Y105.624 E13.29225
G1 X129.641 Y106.144 E13.32111
G1 X130.042 Y106.815 E13.35751
G1 X130.202 Y107.113 E13.37326
G1 X130.687 Y108.051 E13.42243
G1 X130.853 Y108.387 E13.43988
G1 X131.125 Y108.962 E13.4695
G1 X131.452 Y109.73 E13.50836
G1 X131.528 Y109.93 E13.51833
G1 X131.616 Y110.171 E13.53027
G1 X131.751 Y110.555 E13.54923
G1 X131.924 Y111.066 E13.57435
G1 X132.084 Y111.552 E13.59817
G1 X132.228 Y112.025 E13.62119
G1 X132.292 Y112.255 E13.63231
G1 X132.451 Y112.904 E13.66343
G1 X132.588 Y113.552 E13.69427
G1 X132.645 Y113.843 E13.70807
G1 X132.815 Y114.775 E13.75219
G1 X132.944 Y115.722 E13.79669
G1 X132.979 Y116.109 E13.81478
G1 X132.999 Y116.371 E13.82702
G1 X133.039 Y116.997 E13.85623
G1 X133.076 Y117.722 E13.89003
G1 X133.084 Y118.605 E13.93115
G1 X133.075 Y118.883 E13.9441
G1 X133.06 Y119.207 E13.9592
G1 X133.015 Y119.901 E13.99159
G1 X132.961 Y120.595 E14.024
G1 X132.927 Y120.957 E14.04093
G1 X132.907 Y121.135 E14.04927
G1 X132.834 Y121.662 E14.07405
G1 X132.79 Y121.931 E14.08674
G1 X132.731 Y122.257 E14.10216
G1 X132.583 Y123.009 E14.13785
G1 X132.465 Y123.562 E14.16418
G1 X132.382 Y123.921 E14.18134
G1 X132.332 Y124.121 E14.19094
G1 X132.183 Y124.657 E14.21684
G1 X132.08 Y124.993 E14.23321
G1 X131.979 Y125.304 E14.24843
G1 X131.812 Y125.793 E14.27249
G1 X131.534 Y126.577 E14.31123
G1 X131.194 Y127.418 E14.35347
G1 X131.075 Y127.68 E14.36687
G1 X130.933 Y127.98 E14.38232
G1 X130.572 Y128.711 E14.42029
G1 X130.269 Y129.306 E14.45138
G1 X129.82 Y130.1 E14.49385
G1 X129.635 Y130.397 E14.51014
G1 X129.475 Y130.647 E14.52396
G1 X129.058 Y131.274 E14.55903
G1 X128.754 Y131.716 E14.58401
G1 X128.596 Y131.939 E14.59673
G1 X128.45 Y132.14 E14.6083
